fyassine/liver_ultrasound_ros/iiwa_trajectory/bags/recorded_trajectory_standard_joint_positions.csv
time,iiwa_joint_1,iiwa_joint_2,iiwa_joint_3,iiwa_joint_4,iiwa_joint_5,iiwa_joint_6,iiwa_joint_7
1763027694.156018,0.327754885,0.749568164,-0.280351400,-1.441713572,0.115927145,0.817933619,1.518474698
1763027694.162046,0.327754766,0.749567926,-0.280351400,-1.441713810,0.115927242,0.817933619,1.518474698
1763027694.167915,0.327754766,0.749567986,-0.280351281,-1.441713810,0.115927242,0.817933619,1.518474698
1763027694.173938,0.327754885,0.749568164,-0.280351281,-1.441713572,0.115927242,0.817933619,1.518474698
1763027694.179709,0.327754766,0.749567986,-0.280351281,-1.441713572,0.115927145,0.817933738,1.518474936
1763027694.186722,0.327754885,0.749568164,-0.280351281,-1.441713691,0.115927145,0.817933738,1.518474936
1763027694.192698,0.327754885,0.749568164,-0.280351281,-1.441713810,0.115927242,0.817933619,1.518474698
1763027694.198624,0.327754885,0.749568045,-0.280351281,-1.441713572,0.115927145,0.817933619,1.518474698
1763027694.204592,0.327754766,0.749567986,-0.280351281,-1.441713452,0.115927145,0.817933738,1.518474698
1763027694.210631,0.327754766,0.749568164,-0.280351400,-1.441713572,0.115927145,0.817933619,1.518474698
1763027694.215972,0.327754766,0.749567986,-0.280351400,-1.441713691,0.115927435,0.817933619,1.518474817
1763027694.260064,0.327754766,0.749567986,-0.280351281,-1.441713691,0.115927145,0.817933500,1.518474698
1763027694.265974,0.327754766,0.749568045,-0.280351281,-1.441713810,0.115927145,0.817933738,1.518474698
1763027694.271776,0.327754885,0.749567986,-0.280351400,-1.441713572,0.115927145,0.817933619,1.518474936
1763027694.277695,0.327754766,0.749568045,-0.280351400,-1.441713572,0.115927145,0.817933798,1.518474698
1763027694.283080,0.327754766,0.749568045,-0.280351281,-1.441713572,0.115927145,0.817933738,1.518474698
1763027694.290711,0.327754885,0.749568045,-0.280351222,-1.441713691,0.115927145,0.817933619,1.518474936
1763027694.296042,0.327754885,0.749567986,-0.280351400,-1.441713572,0.115927339,0.817933798,1.518474698
1763027694.302606,0.327754766,0.749567986,-0.280351400,-1.441713572,0.115927145,0.817933917,1.518474698
1763027694.307870,0.327754766,0.749568045,-0.280351400,-1.441713572,0.115927145,0.817933738,1.518474698
1763027694.347973,0.327754766,0.749567986,-0.280351400,-1.441713691,0.115927145,0.817933619,1.518474936
1763027694.353963,0.327754766,0.749568045,-0.280351281,-1.441713572,0.115927145,0.817933738,1.518474698
1763027694.359694,0.327754885,0.749567986,-0.280351281,-1.441713572,0.115927145,0.817933619,1.518474698
1763027694.365795,0.327754766,0.749567986,-0.280351281,-1.441713572,0.115927435,0.817933738,1.518474698
1763027694.371519,0.327754766,0.749567926,-0.280351460,-1.441713691,0.115927242,0.817933619,1.518474698
1763027694.376964,0.327754766,0.749567986,-0.280351281,-1.441713572,0.115927242,0.817933619,1.518474698
1763027694.382560,0.327754885,0.749567986,-0.280351400,-1.441713572,0.115927145,0.817933738,1.518474698
1763027694.388578,0.327754766,0.749567986,-0.280351281,-1.441713572,0.115927145,0.817933619,1.518474936
1763027694.394007,0.327754766,0.749568045,-0.280351281,-1.441713452,0.115927145,0.817933738,1.518474698
1763027694.400513,0.327754766,0.749567926,-0.280351281,-1.441713572,0.115927145,0.817933738,1.518474698
1763027694.411019,0.327754766,0.749567986,-0.280351400,-1.441713572,0.115927145,0.817933619,1.518474936
1763027694.449669,0.327754885,0.749567986,-0.280351281,-1.441713572,0.115927242,0.817933619,1.518474698
1763027694.455711,0.327754766,0.749567986,-0.280351222,-1.441713572,0.115927145,0.817933619,1.518474698
1763027694.462065,0.327754766,0.749568164,-0.280351162,-1.441713810,0.115927145,0.817933619,1.518474698
1763027694.467957,0.327754885,0.749567926,-0.280351281,-1.441713572,0.115927242,0.817933619,1.518474936
1763027694.473879,0.327754885,0.749567986,-0.280351281,-1.441713572,0.115927145,0.817933738,1.518474817
1763027694.479646,0.327754766,0.749567926,-0.280351281,-1.441713691,0.115927145,0.817933738,1.518474698
1763027694.518552,0.327754766,0.749567688,-0.280352771,-1.441713452,0.115927339,0.817933619,1.518474817
1763027694.524035,0.327754766,0.749567568,-0.280352920,-1.441713452,0.115927145,0.817933798,1.518474698
1763027694.530033,0.327754766,0.749567509,-0.280353040,-1.441713452,0.115927339,0.817933738,1.518474698
1763027694.535792,0.327754766,0.749567568,-0.280353516,-1.441713333,0.115927145,0.817933738,1.518474698
1763027694.541733,0.327754706,0.749567330,-0.280354053,-1.441713214,0.115927339,0.817933738,1.518474698
1763027694.547911,0.327754647,0.749567389,-0.280354589,-1.441713214,0.115927145,0.817933738,1.518474817
1763027694.553912,0.327754647,0.749567270,-0.280355245,-1.441713214,0.115927145,0.817933500,1.518474817
1763027694.559839,0.327754527,0.749567211,-0.280356139,-1.441713095,0.115927145,0.817933619,1.518474698
1763027694.565856,0.327754527,0.749567211,-0.280357271,-1.441713214,0.115927145,0.817933798,1.518474936
1763027694.571666,0.327754527,0.749567032,-0.280359387,-1.441713214,0.115927145,0.817933738,1.518474698
1763027694.577611,0.327754468,0.749566793,-0.280361235,-1.441713214,0.115927145,0.817933798,1.518474698
1763027694.583060,0.327754527,0.749566376,-0.280361414,-1.441713214,0.115927339,0.817933738,1.518474698
1763027694.590621,0.327754706,0.749566019,-0.280360699,-1.441713214,0.115927145,0.817933619,1.518474698
1763027694.633530,0.327754766,0.749566436,-0.280359089,-1.441713214,0.115927145,0.817933738,1.518474936
1763027694.639665,0.327754766,0.749566615,-0.280359268,-1.441713333,0.115927145,0.817933857,1.518474817
1763027694.645518,0.327754766,0.749566734,-0.280359924,-1.441713333,0.115927145,0.817933619,1.518474936
1763027694.651648,0.327754766,0.749566793,-0.280359864,-1.441713214,0.115927145,0.817933798,1.518474698
1763027694.657548,0.327754766,0.749566793,-0.280359805,-1.441713214,0.115927242,0.817933738,1.518474698
1763027694.663617,0.327754766,0.749566853,-0.280359805,-1.441713333,0.115927145,0.817933798,1.518474698
1763027694.669501,0.327754706,0.749566793,-0.280359745,-1.441713452,0.115927145,0.817933738,1.518474698
1763027694.675136,0.327754647,0.749566913,-0.280359805,-1.441713333,0.115927145,0.817933619,1.518474698
1763027694.680964,0.327754647,0.749566853,-0.280360579,-1.441713452,0.115927145,0.817933917,1.518474817
1763027694.688495,0.327754527,0.749566972,-0.280361593,-1.441713452,0.115927145,0.817933738,1.518474936
1763027694.693949,0.327754527,0.749567211,-0.280361593,-1.441713572,0.115927339,0.817933679,1.518474698
1763027694.699848,0.327754527,0.749567389,-0.280361593,-1.441713572,0.115927145,0.817933619,1.518474817
1763027694.705687,0.327754527,0.749567628,-0.280361414,-1.441713572,0.115927145,0.817933738,1.518474817
1763027694.711715,0.327754527,0.749567688,-0.280361295,-1.441713691,0.115927145,0.817933917,1.518474698
1763027694.717838,0.327754527,0.749567807,-0.280360878,-1.441713810,0.115927145,0.817933738,1.518474698
1763027694.723874,0.327754527,0.749567688,-0.280361056,-1.441713691,0.115927145,0.817933738,1.518474460
1763027694.729714,0.327754527,0.749567568,-0.280361056,-1.441713691,0.115927145,0.817933798,1.518474460
1763027694.735590,0.327754527,0.749567032,-0.280361056,-1.441713572,0.115927242,0.817933738,1.518474698
1763027694.741555,0.327754647,0.749566793,-0.280361414,-1.441713572,0.115927145,0.817933798,1.518474698
1763027694.819541,0.327754706,0.749567211,-0.280360579,-1.441713214,0.115927145,0.817933500,1.518474698
1763027694.824987,0.327754706,0.749567091,-0.280360699,-1.441713214,0.115927242,0.817933619,1.518474698
1763027694.831570,0.327754527,0.749567032,-0.280361295,-1.441713214,0.115927145,0.817933381,1.518474698
1763027694.836957,0.327754468,0.749567032,-0.280362546,-1.441713095,0.115927242,0.817933619,1.518474698
1763027694.843646,0.327754349,0.749566972,-0.280364543,-1.441712976,0.115927242,0.817933619,1.518474698
1763027694.849627,0.327753693,0.749567032,-0.280367702,-1.441712856,0.115927145,0.817933619,1.518474698
1763027694.855743,0.327752799,0.749567091,-0.280371487,-1.441712856,0.115927242,0.817933619,1.518474698
1763027694.861529,0.327751964,0.749567091,-0.280375630,-1.441712856,0.115927145,0.817933619,1.518474936
1763027694.867062,0.327751100,0.749567032,-0.280379444,-1.441712737,0.115927145,0.817933500,1.518474817
1763027694.873555,0.327750266,0.749567032,-0.280381858,-1.441712737,0.115927145,0.817933619,1.518474936
1763027694.879615,0.327750027,0.749567032,-0.280383646,-1.441712856,0.115927145,0.817933619,1.518474698
1763027694.886006,0.327749908,0.749566913,-0.280384123,-1.441712856,0.115927145,0.817933619,1.518474579
1763027694.892053,0.327749908,0.749566972,-0.280384064,-1.441712737,0.115927145,0.817933500,1.518474698
1763027694.897876,0.327749968,0.749566972,-0.280383825,-1.441712737,0.115927145,0.817933619,1.518474698
1763027694.936943,0.327751786,0.749567688,-0.280378610,-1.441712976,0.115927145,0.817933738,1.518474698
1763027694.942924,0.327752084,0.749567688,-0.280378550,-1.441712976,0.115927145,0.817933500,1.518474698
1763027694.948841,0.327752501,0.749567688,-0.280378550,-1.441713095,0.115927242,0.817933619,1.518474698
1763027694.954996,0.327753037,0.749567747,-0.280378550,-1.441713214,0.115927145,0.817933738,1.518474698
1763027694.960766,0.327753335,0.749567568,-0.280378610,-1.441713095,0.115927242,0.817933679,1.518474698
1763027695.003093,0.327753693,0.749567568,-0.280378014,-1.441713095,0.115927145,0.817933798,1.518474698
1763027695.041741,0.327753693,0.749567032,-0.280377895,-1.441713095,0.115927145,0.817933619,1.518474817
1763027695.047863,0.327753693,0.749566972,-0.280377656,-1.441712976,0.115927145,0.817933738,1.518474698
1763027695.053737,0.327753693,0.749566734,-0.280377537,-1.441713095,0.115927145,0.817933619,1.518474698
1763027695.059672,0.327753693,0.749566674,-0.280377537,-1.441712976,0.115927145,0.817933798,1.518474698
1763027695.064959,0.327753812,0.749566436,-0.280377537,-1.441712856,0.115927145,0.817933679,1.518474698
1763027695.071065,0.327753812,0.749566555,-0.280377418,-1.441712856,0.115927145,0.817933798,1.518474460
1763027695.077600,0.327753872,0.749566615,-0.280376703,-1.441712856,0.115927435,0.817933619,1.518474698
1763027695.084558,0.327754110,0.749566615,-0.280376226,-1.441712856,0.115927145,0.817933500,1.518474817
1763027695.090051,0.327754885,0.749566674,-0.280375361,-1.441712737,0.115927145,0.817933798,1.518474817
1763027695.097919,0.327755839,0.749566674,-0.280373991,-1.441712856,0.115927339,0.817933619,1.518474698
1763027695.103901,0.327757180,0.749566793,-0.280372560,-1.441712856,0.115927145,0.817933738,1.518474698
1763027695.109877,0.327758849,0.749566674,-0.280371785,-1.441712856,0.115927048,0.817933619,1.518474698
1763027695.115723,0.327760696,0.749566793,-0.280371070,-1.441712856,0.115927242,0.817933619,1.518474698
1763027695.121611,0.327762246,0.749566793,-0.280370474,-1.441712737,0.115927242,0.817933738,1.518474460
1763027695.127032,0.327765435,0.749566913,-0.280370116,-1.441712737,0.115927145,0.817933798,1.518474698
1763027695.133487,0.327771425,0.749566734,-0.280370176,-1.441712856,0.115927339,0.817933619,1.518474698
1763027695.138973,0.327776998,0.749566793,-0.280370176,-1.441712856,0.115927145,0.817933619,1.518474936
1763027695.144954,0.327781856,0.749566734,-0.280370295,-1.441712737,0.115927145,0.817933738,1.518474698
1763027695.150832,0.327785403,0.749566793,-0.280370176,-1.441712737,0.115927145,0.817933857,1.518474698
1763027695.194631,0.327781022,0.749566615,-0.280371010,-1.441712976,0.115927145,0.817933798,1.518474698
1763027695.200747,0.327780306,0.749566734,-0.280371070,-1.441712856,0.115927145,0.817933500,1.518474698
1763027695.206660,0.327779830,0.749566674,-0.280371070,-1.441712737,0.115927242,0.817933619,1.518474698
1763027695.212533,0.327778071,0.749566793,-0.280370951,-1.441712737,0.115927145,0.817933917,1.518474698
1763027695.218071,0.327774554,0.749566793,-0.280370891,-1.441712856,0.115927145,0.817933738,1.518474698
1763027695.223998,0.327771425,0.749566972,-0.280370295,-1.441712856,0.115927242,0.817933738,1.518474698
1763027695.229967,0.327768326,0.749566972,-0.280370176,-1.441712976,0.115927145,0.817933738,1.518474817
1763027695.235951,0.327765554,0.749566972,-0.280370176,-1.441712737,0.115927145,0.817933738,1.518474817
1763027695.241925,0.327763110,0.749566972,-0.280369997,-1.441712856,0.115927242,0.817933798,1.518474698
1763027695.247727,0.327761352,0.749566972,-0.280369729,-1.441712856,0.115927145,0.817933738,1.518474817
1763027695.253774,0.327760458,0.749566972,-0.280369431,-1.441712856,0.115927435,0.817933619,1.518474936
1763027695.259040,0.327759862,0.749566972,-0.280368954,-1.441712737,0.115927242,0.817933738,1.518474698
1763027695.265057,0.327759445,0.749566972,-0.280368239,-1.441712856,0.115927242,0.817933738,1.518474698
1763027695.270999,0.327758968,0.749566913,-0.280367941,-1.441712737,0.115927145,0.817933619,1.518474698
1763027695.276976,0.327758610,0.749566913,-0.280367821,-1.441712737,0.115927145,0.817933738,1.518474698
1763027695.282753,0.327758372,0.749566793,-0.280367702,-1.441712737,0.115927145,0.817933798,1.518474698
1763027695.324749,0.327749908,0.749566674,-0.280368656,-1.441712737,0.115927145,0.817933738,1.518474698
1763027695.330944,0.327748537,0.749566615,-0.280368835,-1.441712856,0.115927339,0.817933798,1.518474817
1763027695.337014,0.327747166,0.749566615,-0.280368835,-1.441712856,0.115927242,0.817933619,1.518474698
1763027695.380908,0.327743858,0.749565959,-0.280368954,-1.441710234,0.115927242,0.817933738,1.518474936
1763027695.389737,0.327743739,0.749565899,-0.280368716,-1.441709280,0.115927145,0.817933500,1.518474698
1763027695.398451,0.327743858,0.749565899,-0.280368716,-1.441708565,0.115927145,0.817933500,1.518474698
1763027695.403956,0.327743858,0.749565899,-0.280368835,-1.441708446,0.115927145,0.817933500,1.518474698
1763027695.409961,0.327743858,0.749565899,-0.280368835,-1.441708207,0.115927145,0.817933857,1.518474698
1763027695.415727,0.327743858,0.749565959,-0.280368835,-1.441708207,0.115927145,0.817933738,1.518474698
1763027695.421807,0.327743739,0.749566019,-0.280368775,-1.441708088,0.115927145,0.817933738,1.518474698
1763027695.427645,0.327743858,0.749566019,-0.280368954,-1.441708207,0.115927145,0.817933619,1.518474698
1763027695.433663,0.327743739,0.749566019,-0.280369252,-1.441708207,0.115927145,0.817933619,1.518474817
1763027695.439020,0.327743739,0.749566138,-0.280369550,-1.441708207,0.115927339,0.817933619,1.518474817
1763027695.444822,0.327743739,0.749566138,-0.280369878,-1.441708088,0.115927145,0.817933738,1.518474936
1763027695.450742,0.327743500,0.749566138,-0.280369878,-1.441708207,0.115927145,0.817933619,1.518474936
1763027695.456865,0.327742785,0.749566138,-0.280370295,-1.441708207,0.115927145,0.817933500,1.518474698
1763027695.462854,0.327741712,0.749566257,-0.280370891,-1.441708088,0.115927242,0.817933619,1.518474698
1763027695.468739,0.327740282,0.749566257,-0.280371606,-1.441708207,0.115927242,0.817933619,1.518474698
1763027695.474041,0.327738881,0.749566317,-0.280372024,-1.441708207,0.115927339,0.817933619,1.518474698
1763027695.512725,0.327694654,0.749566257,-0.280373394,-1.441708446,0.115927145,0.817933738,1.518474698
1763027695.519024,0.327689528,0.749566257,-0.280373454,-1.441708446,0.115927242,0.817933738,1.518474698
1763027695.524951,0.327685803,0.749566376,-0.280373454,-1.441708207,0.115927145,0.817933619,1.518474698
1763027695.567954,0.327683091,0.749566257,-0.280373573,-1.441708207,0.115927145,0.817933619,1.518474698
1763027695.573899,0.327704012,0.749566257,-0.280373454,-1.441708207,0.115927242,0.817933619,1.518474460
1763027695.579625,0.327709764,0.749566138,-0.280373454,-1.441708207,0.115927145,0.817933619,1.518474817
1763027695.588586,0.327717990,0.749566257,-0.280373394,-1.441708326,0.115927145,0.817933738,1.518474460
1763027695.595003,0.327722043,0.749566376,-0.280373275,-1.441708207,0.115927242,0.817933619,1.518474698
1763027695.600987,0.327724814,0.749566436,-0.280373275,-1.441708446,0.115927145,0.817933619,1.518474698
1763027695.606825,0.327728957,0.749566436,-0.280373454,-1.441708446,0.115927145,0.817933798,1.518474698
1763027695.612867,0.327734083,0.749566734,-0.280373812,-1.441708446,0.115927145,0.817933798,1.518474936
1763027695.618659,0.327738345,0.749566793,-0.280373991,-1.441708446,0.115927145,0.817933798,1.518474817
1763027695.624768,0.327743143,0.749566972,-0.280374110,-1.441708684,0.115927145,0.817933619,1.518474698
1763027695.630576,0.327747107,0.749566913,-0.280374110,-1.441708684,0.115927145,0.817933500,1.518474698
1763027695.636549,0.327750146,0.749566793,-0.280374169,-1.441708684,0.115927145,0.817933619,1.518474698
1763027695.642003,0.327752501,0.749566913,-0.280374408,-1.441708684,0.115927145,0.817933738,1.518474698
1763027695.680878,0.327754527,0.749566913,-0.280374825,-1.441708565,0.115927145,0.817933798,1.518474698
1763027695.688779,0.327767044,0.749566436,-0.280374706,-1.441708565,0.115927145,0.817933500,1.518474698
1763027695.695024,0.327768922,0.749566495,-0.280374706,-1.441708565,0.115927145,0.817933738,1.518474698
1763027695.700768,0.327770889,0.749566615,-0.280374587,-1.441708565,0.115927242,0.817933738,1.518474817
1763027695.708090,0.327772141,0.749566376,-0.280374527,-1.441708565,0.115927145,0.817933738,1.518474698
1763027695.713969,0.327773213,0.749566376,-0.280374825,-1.441708565,0.115927145,0.817933619,1.518474698
1763027695.724658,0.327773631,0.749566376,-0.280374825,-1.441708446,0.115927242,0.817933738,1.518474936
1763027695.762762,0.327772617,0.749566495,-0.280374408,-1.441708565,0.115927242,0.817933738,1.518474817
1763027695.768745,0.327771187,0.749566615,-0.280374408,-1.441708446,0.115927435,0.817933619,1.518474698
1763027695.774868,0.327769578,0.749566615,-0.280374408,-1.441708565,0.115927145,0.817933619,1.518474698
1763027695.780896,0.327768266,0.749566674,-0.280374527,-1.441708684,0.115927145,0.817933619,1.518474817
1763027695.787744,0.327766985,0.749566734,-0.280374587,-1.441708565,0.115927145,0.817933619,1.518474817
1763027695.793931,0.327765912,0.749566674,-0.280374587,-1.441708565,0.115927145,0.817933500,1.518474698
1763027695.799618,0.327765197,0.749566793,-0.280374706,-1.441708565,0.115927145,0.817933619,1.518474698
1763027695.805750,0.327762187,0.749566734,-0.280374706,-1.441708565,0.115927145,0.817933619,1.518474698
1763027695.818771,0.327757835,0.749566674,-0.280374587,-1.441708565,0.115927242,0.817933738,1.518474698
1763027695.824718,0.327751040,0.749566734,-0.280374825,-1.441708684,0.115927145,0.817933738,1.518474698
1763027695.830606,0.327748656,0.749566615,-0.280374885,-1.441708684,0.115927145,0.817933619,1.518474698
1763027695.836128,0.327747166,0.749566615,-0.280375004,-1.441708565,0.115927145,0.817933738,1.518474698
1763027695.842677,0.327746272,0.749566615,-0.280375004,-1.441708684,0.115927435,0.817933798,1.518474698
1763027695.848775,0.327745467,0.749566615,-0.280374885,-1.441708684,0.115927145,0.817933738,1.518474698
1763027695.854639,0.327744991,0.749566615,-0.280374825,-1.441708684,0.115927145,0.817933798,1.518474698
1763027695.860488,0.327744633,0.749566674,-0.280374885,-1.441708684,0.115927048,0.817933738,1.518474698
1763027695.865972,0.327743977,0.749566674,-0.280374885,-1.441708803,0.115927242,0.817933738,1.518474460
1763027695.871819,0.327743739,0.749566734,-0.280374706,-1.441708922,0.115927048,0.817933738,1.518474698
1763027695.911777,0.327743500,0.749566734,-0.280373991,-1.441709280,0.115927145,0.817933738,1.518474698
1763027695.954752,0.327743381,0.749566734,-0.280374110,-1.441709280,0.115927145,0.817933619,1.518474817
1763027695.960752,0.327743381,0.749566734,-0.280374110,-1.441709161,0.115927145,0.817933917,1.518474698
1763027695.966755,0.327743381,0.749566674,-0.280373991,-1.441709280,0.115927048,0.817933798,1.518474936
1763027695.972627,0.327743381,0.749566674,-0.280374110,-1.441709161,0.115927145,0.817933619,1.518474698
1763027695.978030,0.327743381,0.749566734,-0.280374110,-1.441709042,0.115927339,0.817933738,1.518474460
1763027695.984971,0.327743024,0.749566674,-0.280374169,-1.441709280,0.115927145,0.817933738,1.518474698
1763027695.990849,0.327743024,0.749566793,-0.280374169,-1.441709280,0.115927242,0.817933738,1.518474460
1763027695.996988,0.327742904,0.749566674,-0.280374169,-1.441709280,0.115927145,0.817933738,1.518474698
1763027696.002792,0.327742785,0.749566734,-0.280374289,-1.441709161,0.115927145,0.817933738,1.518474698
1763027696.008740,0.327742547,0.749566793,-0.280374289,-1.441709042,0.115927242,0.817933798,1.518474698
1763027696.014498,0.327742249,0.749566734,-0.280374527,-1.441709161,0.115927145,0.817933738,1.518474698
1763027696.020036,0.327742130,0.749566793,-0.280374706,-1.441709280,0.115927242,0.817933917,1.518474698
1763027696.025851,0.327741832,0.749566793,-0.280374587,-1.441709161,0.115927145,0.817933619,1.518474817
1763027696.031897,0.327741712,0.749566734,-0.280374587,-1.441709280,0.115927339,0.817933738,1.518474936
1763027696.037734,0.327741593,0.749566793,-0.280374587,-1.441709280,0.115927145,0.817933738,1.518474817
1763027696.043582,0.327741534,0.749566913,-0.280374527,-1.441709280,0.115927145,0.817933738,1.518474698
1763027696.084133,0.327741355,0.749566793,-0.280374527,-1.441709280,0.115927242,0.817933738,1.518474698
1763027696.091099,0.327741534,0.749566555,-0.280373991,-1.441709042,0.115927145,0.817933619,1.518474817
1763027696.097438,0.327741534,0.749566376,-0.280374169,-1.441709042,0.115927145,0.817933738,1.518474698
1763027696.140600,0.327741355,0.749566674,-0.280374169,-1.441709042,0.115927145,0.817933619,1.518474698
1763027696.145998,0.327741355,0.749566674,-0.280374169,-1.441709042,0.115927145,0.817933738,1.518474698
1763027696.153099,0.327741295,0.749566734,-0.280374527,-1.441709161,0.115927145,0.817933738,1.518474460
1763027696.159034,0.327741057,0.749566734,-0.280374587,-1.441709161,0.115927435,0.817933798,1.518474698
1763027696.166671,0.327740818,0.749566674,-0.280374706,-1.441709042,0.115927145,0.817933738,1.518474698
1763027696.172002,0.327740639,0.749566674,-0.280374825,-1.441709042,0.115927145,0.817933738,1.518474698
1763027696.178012,0.327740461,0.749566674,-0.280374825,-1.441709280,0.115927145,0.817933619,1.518474698
1763027696.184944,0.327740282,0.749566674,-0.280374706,-1.441709042,0.115927242,0.817933619,1.518474817
1763027696.191066,0.327740222,0.749566615,-0.280374706,-1.441709042,0.115927145,0.817933619,1.518474698
1763027696.196967,0.327740222,0.749566615,-0.280374706,-1.441709042,0.115927145,0.817933619,1.518474460
1763027696.202913,0.327740222,0.749566615,-0.280374587,-1.441709042,0.115927145,0.817933738,1.518474698
1763027696.208770,0.327740222,0.749566674,-0.280374289,-1.441709042,0.115927145,0.817933738,1.518474698
1763027696.214673,0.327740282,0.749566615,-0.280373991,-1.441708922,0.115927145,0.817933738,1.518474698
1763027696.220092,0.327740282,0.749566495,-0.280373871,-1.441708922,0.115927145,0.817933738,1.518474698
1763027696.226023,0.327740282,0.749566555,-0.280373812,-1.441709042,0.115927145,0.817933738,1.518474460
1763027696.231865,0.327740282,0.749566555,-0.280373394,-1.441709161,0.115927242,0.817933619,1.518474698
1763027696.237904,0.327740341,0.749566555,-0.280373096,-1.441709042,0.115927339,0.817933619,1.518474698
1763027696.276814,0.327740401,0.749566674,-0.280372560,-1.441709042,0.115927145,0.817933738,1.518474698
1763027696.282890,0.327740461,0.749566793,-0.280372500,-1.441709042,0.115927145,0.817933619,1.518474698
1763027696.327920,0.327740461,0.749566793,-0.280372560,-1.441709280,0.115927145,0.817933738,1.518474698
1763027696.333805,0.327740222,0.749567032,-0.280372560,-1.441709280,0.115927145,0.817933798,1.518474698
1763027696.339669,0.327740341,0.749566913,-0.280372679,-1.441709280,0.115927339,0.817933738,1.518474698
1763027696.345588,0.327740282,0.749566913,-0.280372679,-1.441709280,0.115927145,0.817933738,1.518474936
1763027696.351651,0.327740222,0.749566793,-0.280372679,-1.441709280,0.115927048,0.817933917,1.518474579
1763027696.357701,0.327740222,0.749566793,-0.280372560,-1.441709280,0.115927145,0.817933619,1.518474817
1763027696.362941,0.327740282,0.749566793,-0.280372560,-1.441709280,0.115927145,0.817933619,1.518474817
1763027696.369033,0.327740461,0.749566793,-0.280372500,-1.441709280,0.115927145,0.817933738,1.518474698
1763027696.374884,0.327740341,0.749566674,-0.280372381,-1.441709280,0.115927242,0.817933738,1.518474698
1763027696.380891,0.327740341,0.749566674,-0.280372143,-1.441709280,0.115927145,0.817933619,1.518474817
1763027696.386898,0.327740341,0.749566674,-0.280372024,-1.441709280,0.115927145,0.817933738,1.518474698
1763027696.392814,0.327740461,0.749566734,-0.280371904,-1.441709280,0.115927145,0.817933738,1.518474698
1763027696.398632,0.327740461,0.749566734,-0.280371904,-1.441709161,0.115927145,0.817933619,1.518474936
1763027696.405642,0.327740461,0.749566734,-0.280371666,-1.441709161,0.115927145,0.817933798,1.518474698
1763027696.411005,0.327740520,0.749566972,-0.280371606,-1.441709280,0.115927145,0.817933500,1.518474936
1763027696.417045,0.327740461,0.749566913,-0.280371308,-1.441709280,0.115927435,0.817933619,1.518474698
1763027696.422838,0.327740580,0.749566913,-0.280371189,-1.441709161,0.115927339,0.817933798,1.518474698
1763027696.428742,0.327740580,0.749566913,-0.280371070,-1.441709280,0.115927145,0.817933738,1.518474698
1763027696.434099,0.327740580,0.749566972,-0.280371070,-1.441709280,0.115927145,0.817933738,1.518474460
1763027696.444209,0.327740520,0.749566972,-0.280371070,-1.441709280,0.115927145,0.817933798,1.518474698
1763027696.517513,0.327740341,0.749566674,-0.280372381,-1.441709042,0.115927145,0.817933738,1.518474698
1763027696.523644,0.327740222,0.749566674,-0.280372500,-1.441709042,0.115927242,0.817933619,1.518474698
1763027696.529070,0.327740282,0.749566674,-0.280372679,-1.441709042,0.115927145,0.817933619,1.518474698
1763027696.535649,0.327740341,0.749566674,-0.280372679,-1.441709161,0.115927242,0.817933798,1.518474698
1763027696.541119,0.327740282,0.749566674,-0.280372679,-1.441709399,0.115927242,0.817933619,1.518474698
1763027696.547086,0.327740282,0.749566734,-0.280372858,-1.441709161,0.115927145,0.817933738,1.518474698
1763027696.553614,0.327740222,0.749566793,-0.280372798,-1.441709042,0.115927339,0.817933500,1.518474817
1763027696.559619,0.327740222,0.749566793,-0.280372798,-1.441709042,0.115927242,0.817933679,1.518474698
1763027696.564988,0.327740282,0.749566793,-0.280372858,-1.441709280,0.115927242,0.817933738,1.518474698
1763027696.570851,0.327740282,0.749566913,-0.280372858,-1.441709280,0.115927145,0.817933619,1.518474460
1763027696.576733,0.327740282,0.749566734,-0.280372798,-1.441709280,0.115927242,0.817933917,1.518474698
1763027696.582647,0.327740282,0.749566793,-0.280372798,-1.441709042,0.115927145,0.817933619,1.518474698
1763027696.589000,0.327740341,0.749566674,-0.280372798,-1.441709042,0.115927145,0.817933738,1.518474817
1763027696.595020,0.327740282,0.749566793,-0.280372798,-1.441709042,0.115927145,0.817933619,1.518474936
1763027696.600725,0.327740282,0.749566734,-0.280373096,-1.441709042,0.115927145,0.817933500,1.518474698
1763027696.606881,0.327740341,0.749566793,-0.280372977,-1.441709042,0.115927145,0.817933619,1.518474936
1763027696.612623,0.327740341,0.749566734,-0.280372977,-1.441709042,0.115927145,0.817933738,1.518474698
1763027696.618590,0.327740282,0.749566615,-0.280372798,-1.441709161,0.115927435,0.817933500,1.518474817
1763027696.623948,0.327740282,0.749566734,-0.280372977,-1.441708922,0.115927145,0.817933619,1.518474698
1763027696.793586,0.327740580,0.749566793,-0.280370116,-1.441709280,0.115927145,0.817933917,1.518474698
1763027696.799857,0.327740461,0.749566734,-0.280370116,-1.441709280,0.115927145,0.817933738,1.518474698
1763027696.805673,0.327740461,0.749566674,-0.280370176,-1.441709161,0.115927145,0.817933798,1.518474698
1763027696.811580,0.327740580,0.749566793,-0.280370116,-1.441709042,0.115927339,0.817933798,1.518474698
1763027696.817038,0.327740580,0.749566793,-0.280369997,-1.441709161,0.115927145,0.817933738,1.518474698
1763027696.823076,0.327740461,0.749566793,-0.280370116,-1.441709280,0.115927145,0.817933798,1.518474936
1763027696.828944,0.327740520,0.749566793,-0.280369997,-1.441709280,0.115927339,0.817933679,1.518474698
1763027696.834862,0.327740461,0.749566972,-0.280369997,-1.441709280,0.115927145,0.817933738,1.518474817
1763027696.840791,0.327740520,0.749566972,-0.280369997,-1.441709042,0.115927435,0.817933738,1.518474698
1763027696.847516,0.327740580,0.749566853,-0.280369997,-1.441709161,0.115927242,0.817933798,1.518474698
1763027696.852979,0.327740580,0.749566793,-0.280369997,-1.441709161,0.115927145,0.817933619,1.518474698
1763027696.858871,0.327740580,0.749566793,-0.280369878,-1.441709280,0.115927145,0.817933798,1.518474698
1763027696.864782,0.327740580,0.749566793,-0.280369878,-1.441709280,0.115927145,0.817933798,1.518474698
1763027696.870799,0.327740580,0.749566972,-0.280369997,-1.441709280,0.115927145,0.817933798,1.518474817
1763027696.876641,0.327740580,0.749566972,-0.280370116,-1.441709280,0.115927242,0.817933738,1.518474698
1763027696.882699,0.327740461,0.749567032,-0.280370295,-1.441709280,0.115927145,0.817933798,1.518474698
1763027696.889046,0.327740461,0.749567032,-0.280370355,-1.441709280,0.115927145,0.817933798,1.518474817
1763027696.895739,0.327740520,0.749567032,-0.280370474,-1.441709280,0.115927242,0.817933500,1.518474936
1763027696.901107,0.327740341,0.749567091,-0.280370772,-1.441709280,0.115927242,0.817933798,1.518474817
1763027696.925966,0.327740282,0.749567032,-0.280371785,-1.441709280,0.115927145,0.817933619,1.518474698
1763027696.932026,0.327740222,0.749567032,-0.280371785,-1.441709280,0.115927145,0.817933738,1.518474698
1763027696.942008,0.327740163,0.749567032,-0.280372381,-1.441709280,0.115927145,0.817933738,1.518474698
1763027696.947773,0.327740103,0.749566972,-0.280372798,-1.441709399,0.115927145,0.817933798,1.518474698
1763027696.953861,0.327740103,0.749566972,-0.280372858,-1.441709280,0.115927145,0.817933619,1.518474698
1763027696.959810,0.327740103,0.749566913,-0.280373275,-1.441709161,0.115927145,0.817933619,1.518474698
1763027696.965936,0.327739954,0.749566972,-0.280373394,-1.441709161,0.115927145,0.817933738,1.518474698
1763027696.971630,0.327739716,0.749566972,-0.280373454,-1.441709280,0.115927242,0.817933738,1.518474698
1763027696.977069,0.327739656,0.749566913,-0.280373871,-1.441709399,0.115927145,0.817933798,1.518474698
1763027696.982869,0.327739656,0.749566793,-0.280374110,-1.441709161,0.115927435,0.817933798,1.518474936
1763027696.989979,0.327739537,0.749566793,-0.280374289,-1.441709042,0.115927145,0.817933857,1.518474936
1763027696.995764,0.327739596,0.749566793,-0.280374408,-1.441709280,0.115927145,0.817933738,1.518474936
1763027697.001788,0.327739358,0.749566674,-0.280374289,-1.441709161,0.115927145,0.817933619,1.518474698
1763027697.007054,0.327738523,0.749566734,-0.280374110,-1.441709280,0.115927242,0.817933738,1.518474698
1763027697.012942,0.327736974,0.749566793,-0.280374169,-1.441709280,0.115927145,0.817933619,1.518474817
1763027697.018913,0.327735722,0.749566793,-0.280374169,-1.441709161,0.115927145,0.817933798,1.518474698
1763027697.024875,0.327734321,0.749566793,-0.280374289,-1.441709042,0.115927242,0.817933738,1.518474936
1763027697.030811,0.327733427,0.749566793,-0.280374289,-1.441709042,0.115927145,0.817933738,1.518474698
1763027697.036610,0.327732891,0.749566734,-0.280374408,-1.441709280,0.115927145,0.817933619,1.518474698
1763027697.046629,0.327732235,0.749566913,-0.280374467,-1.441709161,0.115927145,0.817933798,1.518474460
1763027697.052866,0.327731043,0.749566793,-0.280374706,-1.441709280,0.115927242,0.817933619,1.518474698
1763027697.058797,0.327730387,0.749566793,-0.280374706,-1.441709042,0.115927145,0.817933738,1.518474698
1763027697.064846,0.327729911,0.749566793,-0.280374825,-1.441709161,0.115927145,0.817933738,1.518474698
1763027697.070548,0.327729732,0.749566913,-0.280374825,-1.441709280,0.115927145,0.817933619,1.518474698
1763027697.076630,0.327729315,0.749566913,-0.280374885,-1.441709280,0.115927145,0.817933619,1.518474698
1763027697.082486,0.327729255,0.749566853,-0.280375063,-1.441709280,0.115927242,0.817933619,1.518474698
1763027697.089837,0.327729255,0.749566913,-0.280375183,-1.441709280,0.115927145,0.817933619,1.518474698
1763027697.095725,0.327729255,0.749566793,-0.280375063,-1.441709280,0.115927145,0.817933619,1.518474698
1763027697.101755,0.327729553,0.749566793,-0.280374885,-1.441709280,0.115927145,0.817933619,1.518474460
1763027697.107770,0.327729613,0.749566913,-0.280375063,-1.441709161,0.115927242,0.817933619,1.518474698
1763027697.113626,0.327730268,0.749566853,-0.280375004,-1.441709161,0.115927145,0.817933619,1.518474817
1763027697.119653,0.327731282,0.749566913,-0.280375004,-1.441709042,0.115927145,0.817933619,1.518474698
1763027697.125707,0.327733129,0.749566913,-0.280374885,-1.441709280,0.115927242,0.817933798,1.518474698
1763027697.182869,0.327750564,0.749567091,-0.280373096,-1.441709280,0.115927145,0.817933500,1.518474817
1763027697.189762,0.327751160,0.749567091,-0.280372977,-1.441709399,0.115927242,0.817933738,1.518474936
1763027697.199131,0.327751905,0.749567211,-0.280372381,-1.441709399,0.115927145,0.817933738,1.518474698
1763027697.206764,0.327752262,0.749567270,-0.280372381,-1.441709399,0.115927145,0.817933738,1.518474698
1763027697.212587,0.327752382,0.749567270,-0.280372381,-1.441709399,0.115927048,0.817933619,1.518474698
1763027697.218620,0.327752560,0.749567389,-0.280372500,-1.441709399,0.115927145,0.817933619,1.518474698
1763027697.260952,0.327752560,0.749567091,-0.280372679,-1.441709518,0.115927145,0.817933738,1.518474817
1763027697.266891,0.327752560,0.749567091,-0.280372679,-1.441709518,0.115927145,0.817933798,1.518474698
1763027697.272689,0.327752560,0.749567211,-0.280372560,-1.441709638,0.115927145,0.817933917,1.518474698
1763027697.278787,0.327752560,0.749567211,-0.280372560,-1.441709518,0.115927145,0.817933738,1.518474698
1763027697.285633,0.327752560,0.749567211,-0.280372560,-1.441709638,0.115927145,0.817933738,1.518474817
1763027697.291731,0.327752560,0.749567211,-0.280372560,-1.441709638,0.115927145,0.817933619,1.518474698
1763027697.297597,0.327752680,0.749567211,-0.280372560,-1.441709638,0.115927145,0.817933917,1.518474698
1763027697.303587,0.327752680,0.749567211,-0.280372560,-1.441709638,0.115927339,0.817933738,1.518474698
1763027697.309602,0.327752560,0.749567211,-0.280372560,-1.441709638,0.115927145,0.817933738,1.518474698
1763027697.315108,0.327752680,0.749567032,-0.280372560,-1.441709638,0.115927145,0.817933798,1.518474936
1763027697.320848,0.327752680,0.749567032,-0.280372560,-1.441709518,0.115927145,0.817933619,1.518474698
1763027697.326887,0.327752560,0.749567151,-0.280372560,-1.441709518,0.115927242,0.817933798,1.518474698
1763027697.332623,0.327752680,0.749567211,-0.280372500,-1.441709638,0.115927145,0.817933738,1.518474817
1763027697.372727,0.327753156,0.749567211,-0.280372500,-1.441709638,0.115927145,0.817933738,1.518474698
1763027697.378646,0.327753156,0.749567211,-0.280372500,-1.441709518,0.115927145,0.817933619,1.518474698
1763027697.384587,0.327753156,0.749567211,-0.280372679,-1.441709518,0.115927145,0.817933738,1.518474817
1763027697.390545,0.327753156,0.749567211,-0.280372858,-1.441709638,0.115927145,0.817933917,1.518474936
1763027697.396609,0.327753156,0.749567091,-0.280373156,-1.441709757,0.115927145,0.817933619,1.518474698
1763027697.402087,0.327753156,0.749567270,-0.280373275,-1.441709518,0.115927242,0.817933619,1.518474698
1763027697.446649,0.327753037,0.749567211,-0.280374169,-1.441709638,0.115927145,0.817933798,1.518474698
1763027697.452702,0.327752978,0.749567091,-0.280374169,-1.441709638,0.115927145,0.817933619,1.518474698
1763027697.460916,0.327752978,0.749567032,-0.280374169,-1.441709757,0.115927145,0.817933738,1.518474698
1763027697.466987,0.327753037,0.749567091,-0.280373991,-1.441709518,0.115927145,0.817933738,1.518474698
1763027697.473051,0.327752978,0.749567032,-0.280374110,-1.441709518,0.115927145,0.817933738,1.518474817
1763027697.478960,0.327752978,0.749567091,-0.280373871,-1.441709638,0.115927145,0.817933738,1.518474698
1763027697.485969,0.327753156,0.749567330,-0.280373812,-1.441709638,0.115927145,0.817933798,1.518474698
1763027697.491815,0.327753156,0.749567032,-0.280373991,-1.441709638,0.115927145,0.817933798,1.518474698
1763027697.497822,0.327753156,0.749567091,-0.280373812,-1.441709638,0.115927242,0.817933619,1.518474817
1763027697.503758,0.327753156,0.749567211,-0.280373871,-1.441709518,0.115927145,0.817933738,1.518474817
1763027697.509716,0.327753156,0.749567211,-0.280373871,-1.441709638,0.115927145,0.817933738,1.518474817
1763027697.515050,0.327753156,0.749567211,-0.280373812,-1.441709638,0.115927145,0.817933619,1.518474698
1763027697.520989,0.327753156,0.749567330,-0.280373871,-1.441709638,0.115927242,0.817933738,1.518474698
1763027697.526666,0.327753037,0.749567211,-0.280373812,-1.441709638,0.115927145,0.817933917,1.518474698
1763027697.532806,0.327753156,0.749567270,-0.280373871,-1.441709638,0.115927145,0.817933738,1.518474698
1763027697.538694,0.327753156,0.749567270,-0.280373812,-1.441709638,0.115927145,0.817933738,1.518474936
1763027697.544674,0.327753037,0.749567211,-0.280373871,-1.441709638,0.115927145,0.817933917,1.518474698
1763027697.551157,0.327752978,0.749567211,-0.280373812,-1.441709638,0.115927339,0.817933619,1.518474698
1763027697.557818,0.327753037,0.749567091,-0.280373871,-1.441709757,0.115927242,0.817933917,1.518474817
1763027697.649997,0.327753156,0.749566793,-0.280373812,-1.441709518,0.115927242,0.817933798,1.518474698
1763027697.656950,0.327754885,0.749566436,-0.280372858,-1.441709280,0.115927242,0.817933619,1.518474698
1763027697.662961,0.327755243,0.749566436,-0.280372858,-1.441709399,0.115927145,0.817933619,1.518474698
1763027697.670021,0.327755302,0.749566615,-0.280372858,-1.441709399,0.115927145,0.817933738,1.518474698
1763027697.676104,0.327755243,0.749566793,-0.280372977,-1.441709280,0.115927435,0.817933619,1.518474936
1763027697.681899,0.327755302,0.749566734,-0.280373096,-1.441709399,0.115927145,0.817933619,1.518474698
1763027697.688962,0.327755421,0.749566793,-0.280372977,-1.441709399,0.115927145,0.817933738,1.518474698
1763027697.694883,0.327755362,0.749566793,-0.280372977,-1.441709280,0.115927145,0.817933738,1.518474698
1763027697.700811,0.327755302,0.749566793,-0.280373096,-1.441709399,0.115927242,0.817933738,1.518474698
1763027697.706621,0.327755421,0.749566793,-0.280373096,-1.441709280,0.115927242,0.817933619,1.518474817
1763027697.712681,0.327755302,0.749566734,-0.280373275,-1.441709280,0.115927145,0.817933738,1.518474698
1763027697.717924,0.327755302,0.749566734,-0.280373156,-1.441709280,0.115927145,0.817933619,1.518474817
1763027697.723856,0.327755302,0.749566674,-0.280373156,-1.441709280,0.115927242,0.817933500,1.518474698
1763027697.729732,0.327755302,0.749566674,-0.280373275,-1.441709399,0.115927145,0.817933619,1.518474698
1763027697.735713,0.327755243,0.749566674,-0.280373156,-1.441709399,0.115927242,0.817933619,1.518474698
1763027697.741481,0.327755183,0.749566674,-0.280373394,-1.441709399,0.115927145,0.817933619,1.518474698
1763027697.747078,0.327755183,0.749566674,-0.280373394,-1.441709280,0.115927145,0.817933798,1.518474817
1763027697.752838,0.327755183,0.749566734,-0.280373454,-1.441709280,0.115927145,0.817933619,1.518474698
1763027697.792503,0.327755302,0.749566734,-0.280373275,-1.441709399,0.115927145,0.817933619,1.518474936
1763027697.803001,0.327755302,0.749566734,-0.280373394,-1.441709399,0.115927145,0.817933738,1.518474698
1763027697.842913,0.327755302,0.749567270,-0.280373156,-1.441709638,0.115927145,0.817933738,1.518474817
1763027697.848764,0.327755302,0.749567211,-0.280373096,-1.441709518,0.115927145,0.817933738,1.518474698
1763027697.855538,0.327755302,0.749567211,-0.280373096,-1.441709518,0.115927242,0.817933798,1.518474698
1763027697.860959,0.327755302,0.749567032,-0.280373156,-1.441709518,0.115927145,0.817933738,1.518474698
1763027697.867019,0.327755302,0.749567032,-0.280373096,-1.441709518,0.115927145,0.817933738,1.518474460
1763027697.872736,0.327755302,0.749567091,-0.280373156,-1.441709518,0.115927145,0.817933738,1.518474817
1763027697.878583,0.327755302,0.749566972,-0.280373156,-1.441709399,0.115927048,0.817933857,1.518474817
1763027697.885087,0.327755243,0.749566853,-0.280373156,-1.441709518,0.115927145,0.817933738,1.518474698
1763027697.891493,0.327755302,0.749566793,-0.280373096,-1.441709638,0.115927435,0.817933798,1.518474698
1763027697.896988,0.327755302,0.749566972,-0.280373156,-1.441709638,0.115927145,0.817933738,1.518474698
1763027697.902872,0.327755302,0.749566972,-0.280373216,-1.441709638,0.115927145,0.817933738,1.518474698
1763027697.908609,0.327755243,0.749567032,-0.280373216,-1.441709518,0.115927242,0.817933798,1.518474936
1763027697.914559,0.327755302,0.749567032,-0.280373156,-1.441709518,0.115927145,0.817933619,1.518474698
1763027697.919907,0.327755302,0.749567091,-0.280373156,-1.441709638,0.115927145,0.817933619,1.518474698
1763027697.925865,0.327755302,0.749567211,-0.280373156,-1.441709638,0.115927242,0.817933619,1.518474460
1763027697.931603,0.327755302,0.749567091,-0.280373156,-1.441709757,0.115927145,0.817933738,1.518474817
1763027697.937037,0.327755302,0.749567211,-0.280373156,-1.441709638,0.115927145,0.817933738,1.518474698
1763027697.943132,0.327755302,0.749567211,-0.280373156,-1.441709518,0.115927145,0.817933619,1.518474817
1763027697.981856,0.327755243,0.749567211,-0.280373394,-1.441709638,0.115927145,0.817933738,1.518474698
1763027698.024836,0.327755243,0.749566913,-0.280373693,-1.441709638,0.115927145,0.817933738,1.518474698
1763027698.030641,0.327755243,0.749566674,-0.280373693,-1.441709638,0.115927145,0.817933738,1.518474698
1763027698.036663,0.327755183,0.749566674,-0.280373812,-1.441709638,0.115927242,0.817933798,1.518474817
1763027698.042031,0.327755243,0.749566674,-0.280373812,-1.441709638,0.115927145,0.817933738,1.518474698
1763027698.048555,0.327755243,0.749566793,-0.280373812,-1.441709638,0.115927435,0.817933619,1.518474698
1763027698.053991,0.327755243,0.749566674,-0.280373991,-1.441709638,0.115927145,0.817933738,1.518474460
1763027698.059973,0.327755243,0.749566674,-0.280373871,-1.441709638,0.115927242,0.817933798,1.518474698
1763027698.065731,0.327755302,0.749566913,-0.280373693,-1.441709638,0.115927145,0.817933738,1.518474460
1763027698.071805,0.327755243,0.749566972,-0.280373812,-1.441709638,0.115927145,0.817933798,1.518474698
1763027698.079704,0.327755243,0.749567032,-0.280373812,-1.441709638,0.115927145,0.817933619,1.518474460
1763027698.086766,0.327755243,0.749567032,-0.280373812,-1.441709638,0.115927242,0.817933738,1.518474698
1763027698.092521,0.327755243,0.749566972,-0.280373812,-1.441709638,0.115927145,0.817933917,1.518474698
1763027698.098516,0.327755243,0.749567091,-0.280373812,-1.441709638,0.115927242,0.817933738,1.518474698
1763027698.104044,0.327755243,0.749567032,-0.280373693,-1.441709638,0.115927242,0.817933798,1.518474936
1763027698.110462,0.327755243,0.749567151,-0.280373871,-1.441709638,0.115927145,0.817933619,1.518474817
1763027698.115946,0.327755243,0.749567091,-0.280373871,-1.441709638,0.115927242,0.817933917,1.518474698
1763027698.121946,0.327755243,0.749567211,-0.280373812,-1.441709638,0.115927145,0.817933738,1.518474698
1763027698.127657,0.327755243,0.749567032,-0.280373812,-1.441709638,0.115927145,0.817933619,1.518474698
1763027698.133736,0.327755183,0.749567211,-0.280373812,-1.441709638,0.115927145,0.817933619,1.518474460
1763027698.147085,0.327755243,0.749567211,-0.280373991,-1.441709876,0.115927242,0.817933738,1.518474698
1763027698.153030,0.327755243,0.749567151,-0.280374110,-1.441709876,0.115927145,0.817933798,1.518474698
1763027698.158909,0.327755064,0.749567091,-0.280374110,-1.441709757,0.115927435,0.817933857,1.518474698
1763027698.164624,0.327755183,0.749567091,-0.280373991,-1.441709876,0.115927242,0.817933917,1.518474817
1763027698.170539,0.327755064,0.749567211,-0.280373991,-1.441709995,0.115927145,0.817933857,1.518474460
1763027698.176091,0.327755183,0.749567091,-0.280374289,-1.441709995,0.115927242,0.817933738,1.518474698
1763027698.182010,0.327755183,0.749566972,-0.280374289,-1.441709876,0.115927145,0.817933798,1.518474698
1763027698.188839,0.327755183,0.749566972,-0.280374289,-1.441709876,0.115927145,0.817933798,1.518474698
1763027698.194977,0.327755243,0.749567032,-0.280374169,-1.441709995,0.115927242,0.817933917,1.518474698
1763027698.200724,0.327755064,0.749567091,-0.280374169,-1.441709995,0.115927242,0.817933917,1.518474698
1763027698.209564,0.327755064,0.749567091,-0.280374289,-1.441710114,0.115927339,0.817933798,1.518474698
1763027698.215611,0.327755064,0.749567211,-0.280374408,-1.441709995,0.115927145,0.817933619,1.518474698
1763027698.221034,0.327755183,0.749567211,-0.280374289,-1.441710114,0.115927145,0.817933917,1.518474698
1763027698.227535,0.327755243,0.749567330,-0.280374169,-1.441709995,0.115927145,0.817933798,1.518474698
1763027698.232939,0.327755064,0.749567449,-0.280374169,-1.441709995,0.115927145,0.817933738,1.518474698
1763027698.238985,0.327755183,0.749567389,-0.280374110,-1.441710234,0.115927435,0.817933917,1.518474698
1763027698.244788,0.327755243,0.749567449,-0.280373991,-1.441710234,0.115927145,0.817933917,1.518474698
1763027698.250871,0.327755243,0.749567389,-0.280373991,-1.441710353,0.115927435,0.817933917,1.518474698
1763027698.256668,0.327755243,0.749567389,-0.280373871,-1.441710234,0.115927145,0.817933738,1.518474698
1763027698.279814,0.327755302,0.749567211,-0.280373812,-1.441710234,0.115927145,0.817933738,1.518474698
1763027698.287048,0.327755302,0.749567270,-0.280373812,-1.441710114,0.115927145,0.817933798,1.518474698
1763027698.292725,0.327755302,0.749567270,-0.280373693,-1.441710234,0.115927145,0.817933738,1.518474698
1763027698.298647,0.327755302,0.749567389,-0.280373454,-1.441710353,0.115927145,0.817933619,1.518474698
1763027698.304687,0.327755243,0.749567330,-0.280373454,-1.441710234,0.115927242,0.817933917,1.518474698
1763027698.310759,0.327755302,0.749567389,-0.280373573,-1.441710353,0.115927145,0.817933798,1.518474698
1763027698.316627,0.327755183,0.749567389,-0.280373693,-1.441710353,0.115927242,0.817933738,1.518474698
1763027698.322620,0.327755183,0.749567330,-0.280373693,-1.441710353,0.115927145,0.817933798,1.518474698
1763027698.328033,0.327755183,0.749567389,-0.280373693,-1.441710353,0.115927145,0.817933917,1.518474698
1763027698.334075,0.327755243,0.749567330,-0.280373573,-1.441710353,0.115927145,0.817933917,1.518474698
1763027698.339967,0.327755243,0.749567330,-0.280373693,-1.441710353,0.115927339,0.817933798,1.518474698
1763027698.345865,0.327755183,0.749567389,-0.280373573,-1.441710234,0.115927339,0.817933798,1.518474698
1763027698.351757,0.327755183,0.749567270,-0.280373693,-1.441710234,0.115927145,0.817933798,1.518474698
1763027698.357039,0.327755183,0.749567330,-0.280373812,-1.441710353,0.115927145,0.817933738,1.518474936
1763027698.362843,0.327755243,0.749567330,-0.280373693,-1.441710353,0.115927145,0.817933738,1.518474698
1763027698.368872,0.327755183,0.749567270,-0.280373693,-1.441710353,0.115927145,0.817933798,1.518474936
1763027698.374867,0.327755243,0.749567330,-0.280373693,-1.441710234,0.115927435,0.817933917,1.518474698
1763027698.380705,0.327755243,0.749567449,-0.280373693,-1.441710234,0.115927145,0.817933738,1.518474698
1763027698.386642,0.327755183,0.749567449,-0.280373812,-1.441710234,0.115927242,0.817933738,1.518474698
1763027698.446545,0.327755243,0.749567389,-0.280373573,-1.441710353,0.115927145,0.817933917,1.518474817
1763027698.456980,0.327755183,0.749567628,-0.280373812,-1.441710353,0.115927145,0.817933917,1.518474698
1763027698.496003,0.327747405,0.749592721,-0.280350864,-1.441723585,0.115904234,0.817899108,1.518475890
1763027698.502723,0.327747405,0.749624848,-0.280350327,-1.441723704,0.115904041,0.817899168,1.518475890
1763027698.508852,0.327747285,0.749700248,-0.280350566,-1.441721678,0.115903661,0.817899108,1.518475890
1763027698.514840,0.327747464,0.749795318,-0.280354053,-1.441712499,0.115903273,0.817898870,1.518475890
1763027698.520775,0.327747464,0.749893308,-0.280355424,-1.441704035,0.115902893,0.817898452,1.518475890
1763027698.526980,0.327747405,0.750002444,-0.280354708,-1.441703677,0.115902893,0.817897975,1.518475890
1763027698.532820,0.327747464,0.750085413,-0.280353516,-1.441707492,0.115902796,0.817897797,1.518476129
1763027698.538812,0.327747405,0.750202000,-0.280351460,-1.441713214,0.115902893,0.817897916,1.518476248
1763027698.544764,0.327747405,0.750340402,-0.280350029,-1.441714048,0.115902893,0.817897558,1.518476129
1763027698.550777,0.327747464,0.750508904,-0.280349493,-1.441712976,0.115902796,0.817897558,1.518476129
1763027698.557676,0.327747285,0.750739753,-0.280349731,-1.441711307,0.115902700,0.817897379,1.518476129
1763027698.563632,0.327747524,0.750943124,-0.280350149,-1.441711426,0.115902700,0.817897260,1.518476129
1763027698.569618,0.327747524,0.751166344,-0.280350029,-1.441712141,0.115902603,0.817897260,1.518476248
1763027698.613820,0.327749789,0.753342211,-0.280335575,-1.441710591,0.115902223,0.817896366,1.518476129
1763027698.619889,0.327749670,0.753805637,-0.280339539,-1.441709638,0.115902223,0.817896128,1.518476248
1763027698.626127,0.327749670,0.754205167,-0.280343562,-1.441706538,0.115902126,0.817895532,1.518476248
1763027698.632600,0.327749252,0.754607320,-0.280343205,-1.441707015,0.115902126,0.817895353,1.518476129
1763027698.638664,0.327749193,0.755027950,-0.280341446,-1.441707492,0.115902029,0.817895353,1.518476129
1763027698.644667,0.327749312,0.755475283,-0.280339420,-1.441707253,0.115902029,0.817895114,1.518476248
1763027698.650647,0.327749431,0.755942225,-0.280337393,-1.441706657,0.115902029,0.817894936,1.518476129
1763027698.656800,0.327749550,0.756411195,-0.280334979,-1.441706181,0.115901835,0.817894936,1.518476129
1763027698.662754,0.327749372,0.756897449,-0.280333132,-1.441706896,0.115901835,0.817894936,1.518476248
1763027698.668479,0.327749312,0.757415175,-0.280334562,-1.441706896,0.115901835,0.817894936,1.518476248
1763027698.674045,0.327749252,0.757945836,-0.280338764,-1.441706657,0.115901835,0.817894757,1.518475890
1763027698.679965,0.327749252,0.758463144,-0.280340552,-1.441706538,0.115901835,0.817894638,1.518476129
1763027698.687095,0.327749252,0.759072304,-0.280338883,-1.441708207,0.115901835,0.817894757,1.518476248
1763027698.693082,0.327749252,0.759635329,-0.280334562,-1.441707730,0.115901642,0.817894518,1.518476129
1763027698.699627,0.327749312,0.760208607,-0.280334324,-1.441706777,0.115901738,0.817894518,1.518476129
1763027698.705696,0.327749431,0.760789156,-0.280331403,-1.441707134,0.115901835,0.817894399,1.518476129
1763027698.711615,0.327749431,0.761413872,-0.280328870,-1.441707373,0.115901835,0.817894220,1.518476129
1763027698.717858,0.327749312,0.762067199,-0.280330449,-1.441706181,0.115901738,0.817893922,1.518476129
1763027698.723730,0.327749550,0.762813985,-0.280333489,-1.441704988,0.115901738,0.817893982,1.518476129
1763027698.767995,0.327749550,0.763365328,-0.280329764,-1.441704869,0.115901835,0.817893565,1.518476129
1763027698.774001,0.327755123,0.768806100,-0.280318260,-1.441698074,0.115901738,0.817892492,1.518476248
1763027698.780069,0.327755421,0.769575000,-0.280317605,-1.441699743,0.115901835,0.817892969,1.518476129
1763027698.787696,0.327755779,0.770478487,-0.280317605,-1.441699028,0.115901835,0.817892969,1.518476248
1763027698.794525,0.327756733,0.771376848,-0.280315161,-1.441699028,0.115902126,0.817892969,1.518476248
1763027698.799870,0.327756792,0.772155762,-0.280312985,-1.441698909,0.115902126,0.817893088,1.518476248
1763027698.805711,0.327756673,0.772933125,-0.280311733,-1.441698790,0.115902126,0.817892969,1.518476248
1763027698.810937,0.327756792,0.773593783,-0.280310065,-1.441698670,0.115901835,0.817892849,1.518476129
1763027698.816605,0.327756673,0.774379909,-0.280311018,-1.441698313,0.115901835,0.817892671,1.518476129
1763027698.821708,0.327756613,0.775024414,-0.280310959,-1.441698551,0.115901835,0.817892849,1.518476248
1763027698.827464,0.327756554,0.775674284,-0.280311137,-1.441698074,0.115902126,0.817892849,1.518476248
1763027698.832775,0.327756435,0.776321948,-0.280311078,-1.441698074,0.115902223,0.817892849,1.518476367
1763027698.838012,0.327756375,0.777108014,-0.280311137,-1.441698074,0.115902223,0.817892849,1.518476129
1763027698.843157,0.327756375,0.777769744,-0.280311197,-1.441697717,0.115902126,0.817892849,1.518476129
1763027698.848822,0.327756375,0.778547585,-0.280310720,-1.441696286,0.115902126,0.817892790,1.518476248
1763027698.854101,0.327756315,0.779211998,-0.280309111,-1.441697717,0.115902126,0.817893088,1.518476129
1763027698.859840,0.327756375,0.779886544,-0.280307055,-1.441696763,0.115902126,0.817892849,1.518476248
1763027698.865509,0.327756375,0.780704558,-0.280307472,-1.441698670,0.115902126,0.817892849,1.518476248
1763027698.870631,0.327756375,0.781573713,-0.280301601,-1.441699624,0.115902126,0.817893207,1.518476248
1763027698.875940,0.327756613,0.782298505,-0.280301601,-1.441695929,0.115902126,0.817893088,1.518476129
1763027698.918410,0.327778310,0.788512051,-0.280279070,-1.441688418,0.115902223,0.817893088,1.518476248
1763027698.923755,0.327793896,0.789406419,-0.280274540,-1.441689014,0.115902506,0.817893565,1.518476248
1763027698.928992,0.327811629,0.790145338,-0.280273795,-1.441685915,0.115902223,0.817893267,1.518476248
1763027698.934569,0.327833325,0.790882289,-0.280276984,-1.441685796,0.115902312,0.817893505,1.518476248
1763027698.939715,0.327861369,0.791765392,-0.280274898,-1.441684484,0.115902223,0.817893505,1.518476129
1763027698.945612,0.327887565,0.792488873,-0.280277878,-1.441684484,0.115902223,0.817893386,1.518476248
1763027698.950854,0.327918828,0.793356895,-0.280275613,-1.441684246,0.115902223,0.817893386,1.518476367
1763027698.956046,0.327946216,0.794063568,-0.280276209,-1.441683292,0.115902312,0.817893267,1.518476129
1763027698.961586,0.327981800,0.794897735,-0.280275315,-1.441682220,0.115902312,0.817893267,1.518476248
1763027698.966856,0.328012317,0.795590460,-0.280273855,-1.441680431,0.115902312,0.817893386,1.518476248
1763027698.972502,0.328042030,0.796275914,-0.280275077,-1.441678286,0.115902506,0.817893505,1.518476367
1763027698.977843,0.328077495,0.797105014,-0.280272126,-1.441676855,0.115902506,0.817893386,1.518476248
1763027699.015919,0.328271538,0.802503645,-0.280002713,-1.441670656,0.115902796,0.817894220,1.518476248
1763027699.020907,0.328292996,0.803220868,-0.279919207,-1.441669703,0.115902796,0.817894101,1.518476248
1763027699.026627,0.328315824,0.803923607,-0.279823989,-1.441668391,0.115902603,0.817893982,1.518476248
1763027699.031776,0.328340501,0.804623127,-0.279720783,-1.441668391,0.115902893,0.817894518,1.518476248
1763027699.037048,0.328365773,0.805332482,-0.279604077,-1.441667795,0.115902796,0.817894399,1.518476367
1763027699.042865,0.328396112,0.806150436,-0.279456437,-1.441665530,0.115902796,0.817894220,1.518476248
1763027699.048031,0.328420728,0.806825221,-0.279323041,-1.441666484,0.115903080,0.817894340,1.518476367
1763027699.090895,0.328572452,0.812370479,-0.277761370,-1.441665530,0.115902796,0.817894816,1.518476248
1763027699.095978,0.328593373,0.813135147,-0.277510792,-1.441665173,0.115902893,0.817894757,1.518476248
1763027699.101660,0.328607142,0.813747346,-0.277294099,-1.441663980,0.115902700,0.817894757,1.518476367
1763027699.106883,0.328619719,0.814463973,-0.277020276,-1.441663623,0.115902893,0.817894816,1.518476605
1763027699.112464,0.328624338,0.815058887,-0.276776522,-1.441663504,0.115902796,0.817894936,1.518476367
1763027699.117915,0.328624517,0.815759063,-0.276471287,-1.441663623,0.115902796,0.817894936,1.518476367
1763027699.123526,0.328624338,0.816350102,-0.276217341,-1.441663265,0.115903080,0.817894936,1.518476367
1763027699.128728,0.328624517,0.817057490,-0.275920898,-1.441663146,0.115902983,0.817895055,1.518476367
1763027699.133962,0.328624696,0.817621648,-0.275674134,-1.441663146,0.115903080,0.817895114,1.518476486
1763027699.139530,0.328625709,0.818184972,-0.275413901,-1.441664696,0.115903080,0.817895114,1.518476367
1763027699.144747,0.328627527,0.818877816,-0.275074154,-1.441664338,0.115902893,0.817895114,1.518476367
1763027699.150091,0.328627408,0.819447458,-0.274776876,-1.441664577,0.115902893,0.817895114,1.518476367
1763027699.155622,0.328626633,0.820135951,-0.274418920,-1.441665173,0.115902983,0.817895114,1.518476367
1763027699.160868,0.328626692,0.820735693,-0.274122298,-1.441665411,0.115902893,0.817895114,1.518476367
1763027699.200687,0.328633040,0.825373471,-0.271649301,-1.441663623,0.115902700,0.817894936,1.518476367
1763027699.205996,0.328632623,0.826059461,-0.271251440,-1.441664100,0.115902796,0.817895114,1.518476605
1763027699.211456,0.328628421,0.826637626,-0.270904243,-1.441663980,0.115902796,0.817895114,1.518476248
1763027699.216608,0.328616858,0.827215314,-0.270557731,-1.441665292,0.115902700,0.817895055,1.518476367
1763027699.221806,0.328603923,0.827900290,-0.270158589,-1.441665292,0.115902796,0.817895353,1.518476367
1763027699.264694,0.328512043,0.832660139,-0.267344147,-1.441664815,0.115902796,0.817895114,1.518476367
1763027699.270042,0.328507185,0.833302677,-0.266912133,-1.441664696,0.115902796,0.817895114,1.518476367
1763027699.275749,0.328489453,0.833935499,-0.266487151,-1.441664696,0.115902506,0.817894936,1.518476367
1763027699.280987,0.328467220,0.834470391,-0.266150832,-1.441664815,0.115902506,0.817895114,1.518476367
1763027699.287700,0.328444988,0.835213304,-0.265678525,-1.441664815,0.115902603,0.817895114,1.518476248
1763027699.293141,0.328437984,0.835747480,-0.265327871,-1.441664696,0.115902700,0.817894936,1.518476367
1763027699.298855,0.328429133,0.836398304,-0.264886171,-1.441664338,0.115902506,0.817895055,1.518476367
1763027699.304693,0.328415930,0.836925626,-0.264533311,-1.441664577,0.115902700,0.817895114,1.518476367
1763027699.310656,0.328396231,0.837540805,-0.264121354,-1.441664934,0.115902506,0.817895114,1.518476367
1763027699.315969,0.328388989,0.838183939,-0.263701677,-1.441666484,0.115902603,0.817895114,1.518476248
1763027699.321491,0.328386694,0.838718653,-0.263336509,-1.441666007,0.115902506,0.817894936,1.518476367
1763027699.326843,0.328380406,0.839353263,-0.262886852,-1.441666245,0.115902506,0.817894816,1.518476367
1763027699.332440,0.328364402,0.839901209,-0.262522370,-1.441668034,0.115902700,0.817895114,1.518476367
1763027699.337693,0.328339905,0.840578258,-0.262097090,-1.441666365,0.115902506,0.817895055,1.518476367
1763027699.342974,0.328324437,0.841126800,-0.261748880,-1.441665649,0.115902700,0.817895114,1.518476367
1763027699.348027,0.328310847,0.841668308,-0.261388361,-1.441665649,0.115902603,0.817894757,1.518476367
1763027699.353645,0.328295559,0.842234969,-0.261009902,-1.441666722,0.115902603,0.817895234,1.518476367
1763027699.359628,0.328263670,0.843017220,-0.260496855,-1.441665649,0.115902506,0.817894757,1.518476367
1763027699.364984,0.328236789,0.843563437,-0.260153145,-1.441666007,0.115902603,0.817894936,1.518476248
1763027699.413669,0.328212440,0.844131470,-0.259800971,-1.441666484,0.115902603,0.817895353,1.518476367
1763027699.417716,0.327939630,0.849097848,-0.256539524,-1.441663027,0.115902223,0.817894816,1.518476605
1763027699.424633,0.327891797,0.849943757,-0.256026536,-1.441664696,0.115902506,0.817895055,1.518476367
1763027699.429952,0.327867597,0.850574911,-0.255629867,-1.441664219,0.115902312,0.817894936,1.518476367
1763027699.435569,0.327848971,0.851086318,-0.255289048,-1.441664219,0.115902223,0.817895055,1.518476605
1763027699.440825,0.327817559,0.851698160,-0.254888237,-1.441664100,0.115902223,0.817894936,1.518476605
1763027699.446622,0.327782691,0.852212131,-0.254576921,-1.441664219,0.115902223,0.817895114,1.518476367
1763027699.451957,0.327741951,0.852813244,-0.254206926,-1.441663384,0.115902223,0.817895055,1.518476367
1763027699.457677,0.327714622,0.853308260,-0.253897548,-1.441663861,0.115902506,0.817894936,1.518476248
1763027699.462975,0.327682316,0.853905499,-0.253515124,-1.441663861,0.115902223,0.817895114,1.518476367
1763027699.468786,0.327649802,0.854400516,-0.253196537,-1.441663623,0.115902126,0.817895114,1.518476367
1763027699.474468,0.327601731,0.854977846,-0.252835870,-1.441663980,0.115902126,0.817895234,1.518476248
1763027699.479663,0.327551574,0.855559766,-0.252488613,-1.441663861,0.115902223,0.817894936,1.518476367
1763027699.486741,0.327512503,0.856145203,-0.252143055,-1.441663504,0.115902223,0.817894936,1.518476367
1763027699.491982,0.327484220,0.856706202,-0.251797557,-1.441663742,0.115902223,0.817894936,1.518476367
1763027699.497654,0.327459723,0.857165694,-0.251517117,-1.441664457,0.115902223,0.817895055,1.518476367
1763027699.502740,0.327418923,0.857734025,-0.251175761,-1.441664577,0.115902126,0.817894936,1.518476248
1763027699.507983,0.327378333,0.858205557,-0.250898004,-1.441664338,0.115901835,0.817894518,1.518476367
1763027699.513534,0.327336937,0.858667076,-0.250632077,-1.441664696,0.115901835,0.817894638,1.518476367
1763027699.518805,0.327290326,0.859229267,-0.250317276,-1.441665649,0.115901835,0.817894936,1.518476367
1763027699.566941,0.326985270,0.863815069,-0.248162612,-1.441664934,0.115901738,0.817894757,1.518476367
1763027699.574144,0.326953620,0.864479244,-0.247914672,-1.441663265,0.115901738,0.817894757,1.518476367
1763027699.579864,0.326923609,0.865017295,-0.247711599,-1.441663861,0.115901642,0.817894638,1.518476248
1763027699.586555,0.326888740,0.865563214,-0.247512177,-1.441664815,0.115901738,0.817894757,1.518476367
1763027699.591812,0.326848894,0.866115451,-0.247320071,-1.441664577,0.115901642,0.817894757,1.518476367
1763027699.597471,0.326813161,0.866559565,-0.247170269,-1.441664696,0.115901642,0.817894757,1.518476248
1763027699.602734,0.326768637,0.867072940,-0.247005835,-1.441664815,0.115901642,0.817894638,1.518476367
1763027699.607964,0.326731801,0.867517412,-0.246878326,-1.441665530,0.115901642,0.817894816,1.518476248
1763027699.613501,0.326697886,0.867965579,-0.246763274,-1.441664934,0.115901642,0.817894638,1.518476367
1763027699.618784,0.326660901,0.868487537,-0.246643439,-1.441664457,0.115901455,0.817894816,1.518476367
1763027699.624046,0.326631188,0.868911982,-0.246556610,-1.441664696,0.115901642,0.817894757,1.518476248
1763027699.629676,0.326598465,0.869428337,-0.246465594,-1.441664934,0.115901642,0.817894936,1.518476367
1763027699.634767,0.326572001,0.869853437,-0.246404886,-1.441664577,0.115901455,0.817894518,1.518476367
1763027699.640007,0.326546818,0.870264828,-0.246355399,-1.441664577,0.115901455,0.817894518,1.518476367
1763027699.645594,0.326522440,0.870662928,-0.246315852,-1.441664696,0.115901642,0.817894638,1.518476248
1763027699.651019,0.326491803,0.871138275,-0.246276721,-1.441664577,0.115901455,0.817894638,1.518476248
1763027699.656452,0.326465338,0.871544540,-0.246255204,-1.441664696,0.115901455,0.817894757,1.518476367
1763027699.661689,0.326437175,0.871943355,-0.246242926,-1.441663861,0.115901455,0.817894757,1.518476367
1763027699.666786,0.326402634,0.872407198,-0.246238604,-1.441663861,0.115901455,0.817894757,1.518476367
1763027699.709625,0.326140195,0.875567615,-0.246310815,-1.441663742,0.115901455,0.817894399,1.518476367
1763027699.714887,0.326090813,0.875995457,-0.246333465,-1.441663861,0.115901455,0.817894399,1.518476367
1763027699.720051,0.326045692,0.876331866,-0.246352464,-1.441664338,0.115901262,0.817894518,1.518476367
1763027699.725823,0.325987995,0.876742244,-0.246374086,-1.441666842,0.115901455,0.817894399,1.518476248
1763027699.730889,0.325935990,0.877103150,-0.246392369,-1.441667080,0.115901262,0.817894638,1.518476248
1763027699.735989,0.325879782,0.877465546,-0.246414006,-1.441664815,0.115901262,0.817894518,1.518476367
1763027699.741634,0.325823992,0.877806723,-0.246439233,-1.441663027,0.115901262,0.817894399,1.518476605
1763027699.746845,0.325757712,0.878196478,-0.246470511,-1.441663265,0.115901262,0.817894220,1.518476248
1763027699.752528,0.325703382,0.878520012,-0.246494591,-1.441664934,0.115901455,0.817894220,1.518476248
1763027699.757792,0.325630933,0.878933966,-0.246525154,-1.441666842,0.115901455,0.817894340,1.518476248
1763027699.763487,0.325563639,0.879295647,-0.246548638,-1.441665888,0.115901455,0.817894399,1.518476248
1763027699.768650,0.325495929,0.879649043,-0.246569917,-1.441664219,0.115901262,0.817894340,1.518476367
1763027699.774645,0.325415224,0.880030811,-0.246590048,-1.441660643,0.115901165,0.817894340,1.518476248
1763027699.779839,0.325334609,0.880404472,-0.246604607,-1.441662073,0.115901262,0.817894340,1.518476367
1763027699.786654,0.325244844,0.880787849,-0.246615216,-1.441665053,0.115901262,0.817894399,1.518476367
1763027699.791969,0.325142801,0.881203413,-0.246628881,-1.441666722,0.115901358,0.817894340,1.518476367
1763027699.797823,0.325038970,0.881619334,-0.246642306,-1.441664815,0.115901165,0.817894220,1.518476367
1763027699.802972,0.324955374,0.881937444,-0.246655539,-1.441658258,0.115901262,0.817894101,1.518476367
1763027699.808892,0.324852198,0.882297456,-0.246673033,-1.441658497,0.115901262,0.817893982,1.518476367
1763027699.851999,0.324762791,0.882600963,-0.246687487,-1.441658735,0.115901262,0.817893982,1.518476248
1763027699.890536,0.323122382,0.887025297,-0.246977910,-1.441660643,0.115900971,0.817893803,1.518476248
1763027699.896014,0.322978586,0.887357116,-0.247011289,-1.441656470,0.115900971,0.817894101,1.518476129
1763027699.901664,0.322858006,0.887624979,-0.247041315,-1.441654921,0.115900971,0.817893982,1.518476248
1763027699.906847,0.322710246,0.887928486,-0.247081995,-1.441655636,0.115900874,0.817894101,1.518476129
1763027699.912504,0.322586149,0.888187408,-0.247116640,-1.441658974,0.115900971,0.817894220,1.518476248
1763027699.917714,0.322435021,0.888490021,-0.247158885,-1.441659808,0.115900874,0.817893982,1.518476367
1763027699.922902,0.322304934,0.888751447,-0.247201726,-1.441660285,0.115900874,0.817893982,1.518476248
1763027699.927999,0.322169214,0.889022529,-0.247244686,-1.441659451,0.115900971,0.817893982,1.518476248
1763027699.933650,0.322025776,0.889279962,-0.247291550,-1.441655755,0.115900874,0.817893803,1.518476248
1763027699.938766,0.321855247,0.889576793,-0.247347146,-1.441656232,0.115900874,0.817893982,1.518476248
1763027699.944539,0.321713448,0.889812291,-0.247390658,-1.441656470,0.115900874,0.817893803,1.518476248
1763027699.949778,0.321538061,0.890094340,-0.247449070,-1.441658854,0.115900874,0.817893922,1.518476248
1763027699.955471,0.321385503,0.890335441,-0.247500375,-1.441660047,0.115900874,0.817893922,1.518476248
1763027699.960665,0.321232349,0.890578151,-0.247555852,-1.441659927,0.115900688,0.817894220,1.518476248
1763027699.966586,0.321056247,0.890867949,-0.247626022,-1.441659689,0.115900591,0.817893982,1.518476248
1763027699.971590,0.320887625,0.891160727,-0.247700453,-1.441658616,0.115900688,0.817893982,1.518476248
1763027699.976790,0.320747465,0.891391039,-0.247775763,-1.441658497,0.115900591,0.817894220,1.518476248
1763027699.982013,0.320603549,0.891609311,-0.247855648,-1.441658735,0.115900688,0.817894101,1.518476248
1763027700.020017,0.319348842,0.893290758,-0.248563856,-1.441658974,0.115900204,0.817894220,1.518476248
1763027700.063603,0.317775011,0.895123839,-0.249464884,-1.441660166,0.115899920,0.817894340,1.518476367
1763027700.068785,0.317519039,0.895369053,-0.249609649,-1.441660762,0.115899727,0.817894220,1.518476129
1763027700.074612,0.317291886,0.895572364,-0.249736622,-1.441660762,0.115899630,0.817894340,1.518476367
1763027700.079854,0.317024648,0.895800471,-0.249893740,-1.441660762,0.115899630,0.817894340,1.518476248
1763027700.086595,0.316765487,0.896033823,-0.250051498,-1.441660523,0.115899436,0.817894399,1.518476248
1763027700.091723,0.316513568,0.896268964,-0.250219822,-1.441660404,0.115899436,0.817894340,1.518476248
1763027700.097063,0.316301674,0.896467388,-0.250369996,-1.441660643,0.115899436,0.817894340,1.518476248
1763027700.102727,0.316034436,0.896710575,-0.250552326,-1.441660404,0.115899347,0.817893982,1.518476129
1763027700.108049,0.315807819,0.896912277,-0.250699967,-1.441660404,0.115899250,0.817894220,1.518476248
1763027700.113576,0.315526843,0.897128999,-0.250871181,-1.441660404,0.115899153,0.817894220,1.518476248
1763027700.118742,0.315274209,0.897301257,-0.251010597,-1.441660762,0.115899436,0.817894220,1.518476248
1763027700.124645,0.315011173,0.897478640,-0.251143217,-1.441661835,0.115899250,0.817894340,1.518476248
1763027700.129962,0.314692557,0.897692084,-0.251299381,-1.441661716,0.115899250,0.817894340,1.518476248
1763027700.135596,0.314432740,0.897863507,-0.251431674,-1.441661477,0.115899153,0.817894220,1.518476129
1763027700.140756,0.314123183,0.898062766,-0.251599580,-1.441661477,0.115898959,0.817894340,1.518476248
1763027700.146014,0.313863248,0.898236990,-0.251751125,-1.441661596,0.115899056,0.817894220,1.518476248
1763027700.151496,0.313603491,0.898422360,-0.251907140,-1.441661596,0.115898862,0.817894101,1.518476367
1763027700.157059,0.313294977,0.898647130,-0.252102792,-1.441661477,0.115898959,0.817894220,1.518476367
1763027700.162531,0.313033640,0.898831129,-0.252271950,-1.441661477,0.115898959,0.817894220,1.518476129
1763027700.237112,0.308613330,0.901083887,-0.254958034,-1.441661596,0.115898289,0.817894340,1.518476367
1763027700.242686,0.308286995,0.901210964,-0.255148053,-1.441661716,0.115897998,0.817894340,1.518476248
1763027700.247811,0.307888627,0.901355982,-0.255371898,-1.441661835,0.115898192,0.817894340,1.518476248
1763027700.253579,0.307554811,0.901467681,-0.255555630,-1.441662073,0.115898192,0.817894399,1.518476248
1763027700.258901,0.307139575,0.901603639,-0.255790770,-1.441662312,0.115897998,0.817894340,1.518476248
1763027700.264619,0.306796104,0.901727140,-0.255995750,-1.441662192,0.115897998,0.817894340,1.518476248
1763027700.269991,0.306387901,0.901882827,-0.256246805,-1.441661835,0.115898095,0.817894518,1.518476248
1763027700.275623,0.306049287,0.902005851,-0.256458580,-1.441661477,0.115897998,0.817894399,1.518476248
1763027700.280871,0.305650890,0.902139246,-0.256705761,-1.441661596,0.115897998,0.817894340,1.518476248
1763027700.287810,0.305188775,0.902289450,-0.256984621,-1.441661596,0.115897998,0.817894220,1.518476248
1763027700.293527,0.304849923,0.902401030,-0.257182896,-1.441661596,0.115897998,0.817894220,1.518476248
1763027700.298770,0.304434121,0.902542949,-0.257423967,-1.441661477,0.115897998,0.817894220,1.518476248
1763027700.304480,0.304072082,0.902657807,-0.257632017,-1.441661358,0.115897909,0.817894340,1.518476248
1763027700.309653,0.303703219,0.902759910,-0.257839233,-1.441660881,0.115897909,0.817894340,1.518476248
1763027700.315712,0.303259790,0.902867317,-0.258089513,-1.441661000,0.115897998,0.817894340,1.518476248
1763027700.321029,0.302819967,0.902978241,-0.258337289,-1.441661358,0.115897998,0.817894518,1.518476248
1763027700.326687,0.302450091,0.903080106,-0.258544743,-1.441662192,0.115897998,0.817894399,1.518476248
1763027700.331871,0.301990837,0.903202295,-0.258797348,-1.441662192,0.115897998,0.817894340,1.518476248
1763027700.337032,0.301601470,0.903300524,-0.258998513,-1.441662073,0.115897998,0.817894399,1.518476248
1763027700.412616,0.298644602,0.903895020,-0.260553956,-1.441662192,0.115897812,0.817894399,1.518476248
1763027700.417963,0.295149595,0.904457688,-0.262326360,-1.441662073,0.115897618,0.817894399,1.518476129
1763027700.423522,0.294744343,0.904531002,-0.262516290,-1.441662192,0.115897618,0.817894399,1.518476367
1763027700.428540,0.294344306,0.904602468,-0.262710094,-1.441662073,0.115897425,0.817894518,1.518476248
1763027700.433934,0.293851763,0.904679954,-0.262954265,-1.441662192,0.115897425,0.817894518,1.518476605
1763027700.438954,0.293436736,0.904739261,-0.263151169,-1.441662312,0.115897618,0.817894638,1.518476367
1763027700.444659,0.293028265,0.904794872,-0.263344705,-1.441663027,0.115897425,0.817894936,1.518476248
1763027700.449912,0.292547345,0.904860675,-0.263581932,-1.441663742,0.115897618,0.817894757,1.518476248
1763027700.455777,0.292051136,0.904923260,-0.263846964,-1.441663623,0.115897425,0.817894518,1.518476248
1763027700.461010,0.291616887,0.904978335,-0.264076591,-1.441663742,0.115897425,0.817894638,1.518476248
1763027700.466598,0.291180819,0.905037224,-0.264289260,-1.441663980,0.115897231,0.817894757,1.518476367
1763027700.471910,0.290671557,0.905110002,-0.264530778,-1.441664338,0.115897231,0.817894757,1.518476367
1763027700.477807,0.290166318,0.905176401,-0.264776707,-1.441664457,0.115897045,0.817894757,1.518476367
1763027700.483079,0.289731413,0.905227840,-0.264993131,-1.441664577,0.115896948,0.817894816,1.518476248
1763027700.489598,0.289211959,0.905289590,-0.265256196,-1.441664577,0.115896948,0.817894936,1.518476248
1763027700.494944,0.288700342,0.905346930,-0.265523851,-1.441664577,0.115896851,0.817894757,1.518476248
1763027700.499992,0.288273096,0.905396163,-0.265760839,-1.441664577,0.115896851,0.817894757,1.518476367
1763027700.505623,0.287839323,0.905447364,-0.266003221,-1.441664338,0.115896851,0.817894638,1.518476367
1763027700.510829,0.287311018,0.905514240,-0.266293675,-1.441664457,0.115896754,0.817894757,1.518476367
1763027700.553890,0.286877662,0.905575931,-0.266524076,-1.441664696,0.115896754,0.817894816,1.518476367
1763027700.559804,0.282996744,0.906052470,-0.268776745,-1.441667080,0.115895890,0.817894757,1.518476367
1763027700.565807,0.282438397,0.906130493,-0.269110262,-1.441667080,0.115895890,0.817894757,1.518476367
1763027700.571512,0.281859517,0.906205952,-0.269469976,-1.441667318,0.115895793,0.817894936,1.518476248
1763027700.576869,0.281301111,0.906281352,-0.269841313,-1.441668034,0.115895793,0.817894757,1.518476367
1763027700.582619,0.280845702,0.906340241,-0.270151109,-1.441668153,0.115895793,0.817894816,1.518476367
1763027700.588825,0.280178487,0.906419277,-0.270595044,-1.441668153,0.115895703,0.817894757,1.518476367
1763027700.594519,0.279671073,0.906470954,-0.270904124,-1.441668153,0.115895703,0.817894638,1.518476367
1763027700.599699,0.279071301,0.906535685,-0.271277308,-1.441668153,0.115895793,0.817894757,1.518476367
1763027700.605622,0.278570682,0.906588912,-0.271604955,-1.441668153,0.115895793,0.817894816,1.518476367
1763027700.610770,0.277960688,0.906660378,-0.272019088,-1.441668510,0.115895793,0.817894757,1.518476367
1763027700.616502,0.277450740,0.906725168,-0.272360146,-1.441668987,0.115895793,0.817894757,1.518476367
1763027700.621718,0.276852727,0.906807482,-0.272757709,-1.441668987,0.115895607,0.817894757,1.518476367
1763027700.626961,0.276341558,0.906874657,-0.273095548,-1.441668868,0.115895413,0.817894816,1.518476367
1763027700.632120,0.275807112,0.906935275,-0.273452401,-1.441668510,0.115895413,0.817894936,1.518476367
1763027700.637820,0.275274158,0.906990290,-0.273815274,-1.441668510,0.115895703,0.817894936,1.518476248
1763027700.642938,0.274676025,0.907052994,-0.274226934,-1.441668749,0.115895793,0.817894638,1.518476367
1763027700.648548,0.274184614,0.907110214,-0.274561703,-1.441668630,0.115895793,0.817894757,1.518476367
1763027700.653752,0.273568869,0.907184184,-0.274972588,-1.441668749,0.115895607,0.817894936,1.518476248
1763027700.708094,0.273050368,0.907250524,-0.275325954,-1.441668749,0.115895413,0.817894936,1.518476248
1763027700.712959,0.267406106,0.907838762,-0.279094875,-1.441668868,0.115895793,0.817894936,1.518476248
1763027700.718055,0.266868621,0.907878458,-0.279446006,-1.441668987,0.115895793,0.817894936,1.518476248
1763027700.723739,0.266228765,0.907923877,-0.279875994,-1.441668987,0.115895890,0.817895114,1.518476248
1763027700.728954,0.265707523,0.907960296,-0.280223310,-1.441668987,0.115895890,0.817895114,1.518476248
1763027700.734576,0.265192032,0.907995880,-0.280555248,-1.441668987,0.115895987,0.817895114,1.518476248
1763027700.739875,0.264544576,0.908040524,-0.280956805,-1.441668987,0.115895793,0.817895234,1.518476248
1763027700.745546,0.263986290,0.908077478,-0.281306863,-1.441668987,0.115895703,0.817895114,1.518476367
1763027700.750761,0.263329804,0.908117771,-0.281726301,-1.441668868,0.115895890,0.817895114,1.518476367
1763027700.755965,0.262795299,0.908151686,-0.282062441,-1.441668987,0.115895890,0.817895353,1.518476129
1763027700.761560,0.262248755,0.908186555,-0.282396585,-1.441668868,0.115895793,0.817895114,1.518476248
1763027700.766937,0.261589438,0.908230662,-0.282799304,-1.441668987,0.115895793,0.817895234,1.518476248
1763027700.772544,0.261040926,0.908268273,-0.283145040,-1.441668987,0.115895703,0.817895114,1.518476248
1763027700.777689,0.260361373,0.908315063,-0.283581287,-1.441668749,0.115895703,0.817895114,1.518476248
1763027700.784027,0.259787083,0.908355534,-0.283936381,-1.441668749,0.115895890,0.817895055,1.518476248
1763027700.789695,0.259020567,0.908412218,-0.284403622,-1.441668868,0.115895793,0.817895114,1.518476248
1763027700.795396,0.258462638,0.908451140,-0.284739256,-1.441668868,0.115895703,0.817895114,1.518476248
1763027700.800715,0.257772177,0.908500195,-0.285164505,-1.441668868,0.115895607,0.817895234,1.518476248
1763027700.805956,0.257210523,0.908535719,-0.285528779,-1.441668868,0.115895793,0.817895353,1.518476248
1763027700.849580,0.256648123,0.908566117,-0.285880804,-1.441668868,0.115895793,0.817895234,1.518476248
1763027700.854453,0.251780361,0.908795834,-0.288731784,-1.441669703,0.115895793,0.817895651,1.518476248
1763027700.859742,0.251083583,0.908818960,-0.289130211,-1.441669703,0.115895890,0.817895472,1.518476248
1763027700.900576,0.246491656,0.908943415,-0.291725636,-1.441669703,0.115895703,0.817895532,1.518476129
1763027700.905941,0.245821327,0.908962131,-0.292108536,-1.441669703,0.115895607,0.817895651,1.518476248
1763027700.911511,0.245247751,0.908976614,-0.292429835,-1.441669822,0.115895793,0.817895651,1.518476129
1763027700.916815,0.244530618,0.908994496,-0.292819500,-1.441669822,0.115895607,0.817895651,1.518476129
1763027700.921956,0.243936986,0.909006774,-0.293142706,-1.441669703,0.115895793,0.817895532,1.518476129
1763027700.927561,0.243356943,0.909015119,-0.293459922,-1.441669822,0.115895793,0.817895532,1.518476248
1763027700.932679,0.242652267,0.909025729,-0.293847620,-1.441669941,0.115895607,0.817895651,1.518476248
1763027700.938069,0.242060244,0.909036100,-0.294168621,-1.441669822,0.115895607,0.817895532,1.518476129
1763027700.943599,0.241463318,0.909048676,-0.294492066,-1.441669822,0.115895607,0.817895532,1.518476248
1763027700.948698,0.240722030,0.909064174,-0.294885635,-1.441669822,0.115895607,0.817895532,1.518476248
1763027700.953972,0.240092561,0.909075201,-0.295218319,-1.441669703,0.115895793,0.817895353,1.518476248
1763027700.959712,0.239488974,0.909084201,-0.295542717,-1.441669703,0.115895987,0.817895353,1.518476129
1763027700.964865,0.238772854,0.909093559,-0.295923054,-1.441669822,0.115895703,0.817895353,1.518476129
1763027700.970476,0.238165200,0.909103692,-0.296239734,-1.441669703,0.115895703,0.817895532,1.518476129
1763027700.975688,0.237441584,0.909114301,-0.296619624,-1.441669583,0.115895703,0.817895472,1.518476248
1763027700.980957,0.236826196,0.909120023,-0.296937525,-1.441669583,0.115895793,0.817895770,1.518476248
1763027700.987663,0.236080781,0.909125090,-0.297313929,-1.441669703,0.115895607,0.817895532,1.518476129
1763027701.030661,0.230969325,0.909137130,-0.299814314,-1.441669941,0.115895793,0.817895532,1.518476129
1763027701.036061,0.230267048,0.909137189,-0.300143182,-1.441669822,0.115895793,0.817895651,1.518476248
1763027701.041656,0.229673237,0.909136593,-0.300415695,-1.441669822,0.115895793,0.817895532,1.518476129
1763027701.046991,0.228958800,0.909136534,-0.300730407,-1.441669703,0.115895793,0.817895532,1.518476129
1763027701.052132,0.228365704,0.909135163,-0.300987333,-1.441669941,0.115895793,0.817895770,1.518476129
1763027701.057908,0.227675587,0.909134686,-0.301285267,-1.441669822,0.115895793,0.817895651,1.518476129
1763027701.063486,0.227110177,0.909133673,-0.301528960,-1.441669822,0.115895890,0.817895651,1.518476129
1763027701.068817,0.226428390,0.909133017,-0.301826239,-1.441669822,0.115895793,0.817895532,1.518476129
1763027701.074030,0.225855723,0.909132540,-0.302074194,-1.441669941,0.115895793,0.817895472,1.518476129
1763027701.079615,0.225152314,0.909132123,-0.302359670,-1.441669822,0.115895793,0.817895532,1.518476129
1763027701.085915,0.224450275,0.909131825,-0.302623004,-1.441669941,0.115895793,0.817895532,1.518476129
1763027701.091457,0.223877847,0.909131050,-0.302836269,-1.441669941,0.115895890,0.817895651,1.518476129
1763027701.096813,0.223176345,0.909130335,-0.303117186,-1.441669941,0.115895793,0.817895532,1.518476129
1763027701.102511,0.222584754,0.909130633,-0.303364187,-1.441669941,0.115895703,0.817895532,1.518476129
1763027701.107900,0.221893743,0.909131229,-0.303643048,-1.441669941,0.115895703,0.817895532,1.518476129
1763027701.112940,0.221314117,0.909131527,-0.303861648,-1.441670060,0.115895607,0.817895651,1.518475890
1763027701.118643,0.220710889,0.909131706,-0.304074228,-1.441669941,0.115895703,0.817895532,1.518475890
1763027701.123781,0.220000282,0.909132242,-0.304319501,-1.441669941,0.115895793,0.817895651,1.518476129
1763027701.128954,0.219416782,0.909132481,-0.304521024,-1.441669941,0.115895793,0.817895532,1.518476129
1763027701.170739,0.214717403,0.909139991,-0.306077838,-1.441669822,0.115895413,0.817895651,1.518476129
1763027701.209528,0.210358262,0.909144998,-0.307360798,-1.441670060,0.115895703,0.817895532,1.518476129
1763027701.215043,0.209701583,0.909148097,-0.307538748,-1.441669941,0.115895793,0.817895651,1.518475890
1763027701.220569,0.209160134,0.909150422,-0.307664782,-1.441669941,0.115895793,0.817895651,1.518475652
1763027701.225973,0.208509162,0.909150243,-0.307802826,-1.441669822,0.115895793,0.817895770,1.518475890
1763027701.231016,0.207968250,0.909149706,-0.307912797,-1.441669941,0.115895793,0.817895770,1.518475771
1763027701.236551,0.207427815,0.909149408,-0.308021963,-1.441669941,0.115895793,0.817895651,1.518475890
1763027701.241810,0.206784800,0.909148753,-0.308150560,-1.441669941,0.115895987,0.817895532,1.518475890
1763027701.247498,0.206256777,0.909148037,-0.308249056,-1.441669822,0.115895890,0.817895532,1.518475890
1763027701.252757,0.205611303,0.909147620,-0.308358252,-1.441669822,0.115895987,0.817895472,1.518475890
1763027701.257983,0.205069855,0.909147382,-0.308437407,-1.441669941,0.115895987,0.817895532,1.518476129
1763027701.263427,0.204543695,0.909147263,-0.308504820,-1.441669941,0.115895987,0.817895532,1.518476009
1763027701.268911,0.203920752,0.909146547,-0.308581263,-1.441669941,0.115895987,0.817895532,1.518475890
1763027701.274532,0.203386977,0.909146369,-0.308657616,-1.441669822,0.115895890,0.817895532,1.518475890
1763027701.279743,0.202759370,0.909145892,-0.308741868,-1.441669822,0.115895987,0.817895532,1.518475771
1763027701.286518,0.202151045,0.909145892,-0.308811784,-1.441669941,0.115896180,0.817895770,1.518475890
1763027701.291612,0.201532841,0.909145594,-0.308875769,-1.441669941,0.115896180,0.817895830,1.518475890
1763027701.296890,0.201005414,0.909145415,-0.308922768,-1.441669583,0.115896277,0.817895770,1.518475890
1763027701.302474,0.200499624,0.909144878,-0.308953732,-1.441669703,0.115896374,0.817895532,1.518475890
1763027701.344069,0.196490660,0.909114599,-0.308955461,-1.441669464,0.115896374,0.817895770,1.518475890
1763027701.349832,0.195981860,0.909108520,-0.308926463,-1.441669345,0.115896560,0.817895651,1.518475890
1763027701.355550,0.195558161,0.909107447,-0.308907956,-1.441669106,0.115896374,0.817895770,1.518475890
1763027701.360995,0.195059553,0.909105897,-0.308870494,-1.441668987,0.115896374,0.817895651,1.518475890
1763027701.366644,0.194663778,0.909100711,-0.308824003,-1.441669106,0.115896560,0.817895770,1.518475771
1763027701.372147,0.194210410,0.909088969,-0.308752269,-1.441668987,0.115896657,0.817895651,1.518475771
1763027701.377814,0.193751127,0.909074426,-0.308677375,-1.441669106,0.115896657,0.817895651,1.518475771
1763027701.383669,0.193365648,0.909062624,-0.308600575,-1.441669106,0.115896657,0.817895651,1.518475890
1763027701.388949,0.192914680,0.909047186,-0.308480650,-1.441669106,0.115896754,0.817895830,1.518475771
1763027701.394728,0.192557856,0.909031391,-0.308362782,-1.441669106,0.115896657,0.817895830,1.518475890
1763027701.399739,0.192143679,0.909007072,-0.308207422,-1.441668987,0.115896754,0.817895770,1.518475890
1763027701.405556,0.191806927,0.908985138,-0.308072716,-1.441669106,0.115896754,0.817895830,1.518475890
1763027701.410764,0.191414192,0.908958554,-0.307898641,-1.441668987,0.115896754,0.817895770,1.518475890
1763027701.416953,0.191051140,0.908930480,-0.307703733,-1.441668987,0.115896851,0.817895830,1.518475890
1763027701.422621,0.190761179,0.908903778,-0.307536960,-1.441668987,0.115896948,0.817895770,1.518475652
1763027701.427770,0.190418124,0.908866823,-0.307338089,-1.441668987,0.115896948,0.817895830,1.518475771
1763027701.432841,0.190143272,0.908834815,-0.307163000,-1.441668987,0.115896948,0.817895770,1.518475771
1763027701.438561,0.189884350,0.908802450,-0.306972086,-1.441668868,0.115896948,0.817895770,1.518475890
1763027701.443783,0.189582944,0.908762932,-0.306721449,-1.441668987,0.115897141,0.817895770,1.518475890
1763027701.487699,0.187925532,0.908376157,-0.304485649,-1.441668510,0.115897328,0.817895830,1.518476129
1763027701.493604,0.187774703,0.908305705,-0.304114699,-1.441668630,0.115897231,0.817895949,1.518475771
1763027701.498923,0.187634677,0.908229530,-0.303736538,-1.441668630,0.115897231,0.817895949,1.518475890
1763027701.504570,0.187529564,0.908161461,-0.303415537,-1.441668630,0.115897231,0.817895949,1.518475771
1763027701.509817,0.187424764,0.908077478,-0.303017765,-1.441668630,0.115897328,0.817896128,1.518475771
1763027701.515580,0.187355563,0.908006728,-0.302670419,-1.441668630,0.115897328,0.817896247,1.518475890
1763027701.520799,0.187286228,0.907921851,-0.302230716,-1.441668510,0.115897231,0.817895949,1.518475771
1763027701.526616,0.187235475,0.907850444,-0.301864058,-1.441668153,0.115897231,0.817896068,1.518475890
1763027701.531869,0.187185630,0.907763004,-0.301430702,-1.441667557,0.115897425,0.817896068,1.518475890
1763027701.537598,0.187165543,0.907690883,-0.301061958,-1.441667557,0.115897425,0.817896187,1.518475890
1763027701.542853,0.187166810,0.907600760,-0.300590843,-1.441667557,0.115897425,0.817896247,1.518475890
1763027701.548136,0.187174544,0.907521844,-0.300173670,-1.441667557,0.115897425,0.817896247,1.518475890
1763027701.553729,0.187179267,0.907416821,-0.299680114,-1.441667676,0.115897425,0.817896068,1.518475890
1763027701.558964,0.187187001,0.907323837,-0.299271554,-1.441667676,0.115897425,0.817896068,1.518475890
1763027701.565142,0.187212765,0.907219648,-0.298758805,-1.441667676,0.115897328,0.817896187,1.518475652
1763027701.570572,0.187242612,0.907139242,-0.298299640,-1.441667199,0.115897425,0.817896068,1.518475890
1763027701.575892,0.187282398,0.907041013,-0.297737807,-1.441665173,0.115897425,0.817895949,1.518475890
1763027701.581086,0.187321946,0.906954050,-0.297281116,-1.441664696,0.115897425,0.817895949,1.518475890
1763027701.587826,0.187398463,0.906826973,-0.296620905,-1.441664696,0.115897231,0.817896068,1.518475771
1763027701.630519,0.188230410,0.905930340,-0.292174578,-1.441662788,0.115897425,0.817895949,1.518475890
1763027701.635837,0.188383922,0.905790329,-0.291481227,-1.441662788,0.115897425,0.817895949,1.518475890
1763027701.641427,0.188509762,0.905683696,-0.290907890,-1.441662788,0.115897425,0.817896068,1.518475771
1763027701.646740,0.188667238,0.905564785,-0.290187746,-1.441661954,0.115897425,0.817896068,1.518475890
1763027701.651906,0.188803256,0.905454636,-0.289581835,-1.441658139,0.115897425,0.817895949,1.518475771
1763027701.657620,0.188944012,0.905334532,-0.288986415,-1.441656113,0.115897328,0.817896068,1.518475890
1763027701.662892,0.189126223,0.905186892,-0.288240016,-1.441656351,0.115897328,0.817896068,1.518475890
1763027701.668602,0.189284787,0.905070424,-0.287612289,-1.441656947,0.115897425,0.817896068,1.518475890
1763027701.673787,0.189472571,0.904936314,-0.286855012,-1.441656828,0.115897521,0.817896128,1.518475771
1763027701.679625,0.189639211,0.904830217,-0.286186576,-1.441656947,0.115897425,0.817896068,1.518475771
1763027701.685863,0.189876556,0.904667258,-0.285255879,-1.441656590,0.115897425,0.817896128,1.518475890
1763027701.691468,0.190050095,0.904544294,-0.284581900,-1.441656828,0.115897425,0.817896247,1.518475890
1763027701.696967,0.190273836,0.904397190,-0.283751756,-1.441658258,0.115897425,0.817896247,1.518476129
1763027701.702638,0.190462768,0.904272377,-0.283063740,-1.441657901,0.115897425,0.817895830,1.518475890
1763027701.707980,0.190699518,0.904130638,-0.282202423,-1.441658139,0.115897328,0.817895770,1.518475771
1763027701.713087,0.190903425,0.904016435,-0.281489253,-1.441658020,0.115897618,0.817895949,1.518475890
1763027701.718704,0.191107765,0.903895676,-0.280770302,-1.441657901,0.115897425,0.817896068,1.518475771
1763027701.723851,0.191368714,0.903746784,-0.279882163,-1.441657782,0.115897425,0.817896068,1.518476129
1763027701.729640,0.191591382,0.903620481,-0.279143989,-1.441657901,0.115897425,0.817895830,1.518475890
1763027701.773599,0.191862941,0.903477311,-0.278228581,-1.441657901,0.115897141,0.817895830,1.518475890
1763027701.777492,0.193845794,0.902530074,-0.271637917,-1.441656113,0.115897328,0.817896247,1.518475890
1763027701.838051,0.197017968,0.901126683,-0.261397332,-1.441656709,0.115897328,0.817896962,1.518475890
1763027701.843612,0.197341591,0.900994956,-0.260326594,-1.441656113,0.115897425,0.817897081,1.518475890
1763027701.848925,0.197619751,0.900872409,-0.259432107,-1.441655755,0.115896851,0.817896485,1.518475890
1763027701.854677,0.197971299,0.900716484,-0.258337647,-1.441655993,0.115896948,0.817896664,1.518476129
1763027701.859833,0.198269948,0.900591910,-0.257441461,-1.441655993,0.115896948,0.817896485,1.518475890
1763027701.865651,0.198567584,0.900476277,-0.256543666,-1.441656232,0.115896851,0.817896485,1.518475890
1763027701.872959,0.199058637,0.900292218,-0.255117714,-1.441655993,0.115896948,0.817896485,1.518476129
1763027701.878477,0.199366271,0.900167525,-0.254199058,-1.441655993,0.115896657,0.817896247,1.518475890
1763027701.885551,0.199730769,0.900009096,-0.253104299,-1.441656113,0.115897045,0.817896485,1.518475890
1763027701.890764,0.200161606,0.899830759,-0.251812488,-1.441655993,0.115896657,0.817896247,1.518475890
1763027701.896603,0.200468644,0.899715424,-0.250899225,-1.441655993,0.115896754,0.817896366,1.518475890
1763027701.901745,0.200829178,0.899572611,-0.249815956,-1.441655755,0.115896657,0.817896128,1.518475890
1763027701.907032,0.201133639,0.899439692,-0.248922661,-1.441655755,0.115896754,0.817896485,1.518475890
1763027701.912524,0.201434925,0.899298787,-0.248019233,-1.441655755,0.115896851,0.817896664,1.518475890
1763027701.917840,0.201804936,0.899142683,-0.246914819,-1.441655755,0.115896851,0.817896664,1.518475890
1763027701.922992,0.202133670,0.899026632,-0.245982572,-1.441655755,0.115896754,0.817896485,1.518475890
1763027701.928514,0.202468693,0.898909450,-0.245061338,-1.441655636,0.115896754,0.817895949,1.518475890
1763027701.966719,0.205022290,0.897942245,-0.238099098,-1.441656709,0.115896560,0.817896545,1.518476129
1763027702.008590,0.207982451,0.896883726,-0.230437115,-1.441656232,0.115896657,0.817896664,1.518475890
1763027702.013814,0.208407834,0.896740139,-0.229358166,-1.441655993,0.115896851,0.817896247,1.518476129
1763027702.019531,0.208758608,0.896617949,-0.228457972,-1.441655993,0.115896657,0.817896664,1.518475890
1763027702.024723,0.209182069,0.896458983,-0.227382392,-1.441655993,0.115896754,0.817896247,1.518476129
1763027702.030524,0.209541231,0.896323144,-0.226472244,-1.441656590,0.115896463,0.817896247,1.518475890
1763027702.035860,0.209983870,0.896164715,-0.225383177,-1.441656709,0.115896754,0.817896247,1.518476129
1763027702.041075,0.210358739,0.896043062,-0.224472567,-1.441656590,0.115896657,0.817896128,1.518475890
1763027702.046702,0.210737854,0.895927072,-0.223576263,-1.441656590,0.115896657,0.817896128,1.518476129
1763027702.051894,0.211208895,0.895787418,-0.222489595,-1.441655993,0.115896374,0.817895949,1.518476248
1763027702.057577,0.211607203,0.895663261,-0.221592695,-1.441656113,0.115896657,0.817896247,1.518476248
1763027702.062492,0.212013409,0.895535469,-0.220683336,-1.441656113,0.115896657,0.817896068,1.518476129
1763027702.067817,0.212505355,0.895397067,-0.219593123,-1.441656113,0.115896657,0.817896247,1.518476129
1763027702.073017,0.212908208,0.895292699,-0.218679443,-1.441655993,0.115896657,0.817896128,1.518476129
1763027702.078752,0.213377804,0.895156801,-0.217605308,-1.441655874,0.115896657,0.817896247,1.518476129
1763027702.084895,0.213780239,0.895031214,-0.216704980,-1.441655993,0.115896560,0.817896247,1.518475890
1763027702.090668,0.214286804,0.894868314,-0.215622753,-1.441656113,0.115896754,0.817896247,1.518476129
1763027702.095880,0.214789495,0.894724250,-0.214549199,-1.441655993,0.115896657,0.817896247,1.518476129
1763027702.101528,0.215194494,0.894618988,-0.213661477,-1.441655993,0.115896754,0.817895770,1.518476129
1763027702.106654,0.215698376,0.894490421,-0.212591276,-1.441655993,0.115896657,0.817895830,1.518476129
1763027702.149777,0.216466799,0.894260943,-0.210998699,-1.441655993,0.115896754,0.817896068,1.518476248
1763027702.155488,0.219881222,0.893315017,-0.204208076,-1.441655159,0.115896754,0.817896485,1.518476129
1763027702.160738,0.220449939,0.893185735,-0.203145429,-1.441654682,0.115896374,0.817896068,1.518476248
1763027702.165964,0.220913067,0.893074691,-0.202293590,-1.441654563,0.115896754,0.817896247,1.518476129
1763027702.171582,0.221360922,0.892950177,-0.201425821,-1.441653132,0.115896374,0.817895532,1.518476009
1763027702.176921,0.221924782,0.892795265,-0.200394094,-1.441653490,0.115896463,0.817895770,1.518476248
1763027702.182054,0.222419903,0.892669618,-0.199511275,-1.441654444,0.115895987,0.817895114,1.518476248
1763027702.188871,0.223090127,0.892506301,-0.198348328,-1.441654205,0.115896180,0.817895234,1.518476248
1763027702.194567,0.223551393,0.892392278,-0.197512850,-1.441653728,0.115895987,0.817894816,1.518476367
1763027702.199872,0.224126637,0.892254770,-0.196517676,-1.441653490,0.115896180,0.817895114,1.518476129
1763027702.205595,0.224625662,0.892132223,-0.195660263,-1.441653371,0.115896180,0.817895114,1.518476129
1763027702.211501,0.225204915,0.891983271,-0.194678575,-1.441653490,0.115896374,0.817895532,1.518476248
1763027702.216733,0.225669727,0.891865194,-0.193866223,-1.441653371,0.115896277,0.817895651,1.518476248
1763027702.221985,0.226245925,0.891729891,-0.192902103,-1.441653371,0.115896180,0.817895353,1.518476248
1763027702.227627,0.226742372,0.891613960,-0.192102686,-1.441653490,0.115895413,0.817894757,1.518476248
1763027702.232723,0.227326363,0.891469955,-0.191162407,-1.441653371,0.115895219,0.817894816,1.518476248
1763027702.238073,0.227800399,0.891349673,-0.190404579,-1.441653371,0.115895890,0.817895114,1.518476248
1763027702.243636,0.228277311,0.891227543,-0.189635202,-1.441653371,0.115896374,0.817895353,1.518476248
1763027702.248738,0.228853568,0.891087532,-0.188733563,-1.441653371,0.115896180,0.817895532,1.518476367
1763027702.291708,0.229339600,0.890974998,-0.187962741,-1.441653490,0.115895219,0.817894936,1.518476248
1763027702.296602,0.233604535,0.890012860,-0.181857079,-1.441651464,0.115895703,0.817894816,1.518476248
1763027702.301911,0.234253541,0.889875948,-0.181017220,-1.441651583,0.115895890,0.817894936,1.518476367
1763027702.307605,0.234781519,0.889757931,-0.180323988,-1.441651583,0.115895703,0.817895234,1.518476367
1763027702.312689,0.235308930,0.889644027,-0.179643705,-1.441651940,0.115895987,0.817895353,1.518476248
1763027702.318539,0.235948294,0.889510214,-0.178835735,-1.441651464,0.115895987,0.817895114,1.518476248
1763027702.323690,0.236591727,0.889386654,-0.178011879,-1.441651702,0.115895793,0.817895114,1.518476367
1763027702.328985,0.237114847,0.889271736,-0.177342325,-1.441651344,0.115895703,0.817894936,1.518476367
1763027702.334631,0.237655506,0.889147699,-0.176665276,-1.441649675,0.115895793,0.817894936,1.518476367
1763027702.340008,0.238327831,0.888997853,-0.175847888,-1.441650033,0.115895703,0.817895114,1.518476248
1763027702.345575,0.238870710,0.888882160,-0.175205350,-1.441649795,0.115895793,0.817895114,1.518476248
1763027702.350762,0.239526004,0.888760805,-0.174417511,-1.441649795,0.115895793,0.817895234,1.518476248
1763027702.355892,0.240096822,0.888653040,-0.173750043,-1.441649675,0.115895793,0.817895234,1.518476248
1763027702.361078,0.240665883,0.888530970,-0.173101336,-1.441649675,0.115895703,0.817895055,1.518476367
1763027702.366721,0.241217643,0.888399065,-0.172457784,-1.441649675,0.115895793,0.817895055,1.518476367
1763027702.371907,0.241893187,0.888244152,-0.171687737,-1.441650271,0.115895890,0.817895055,1.518476367
1763027702.377632,0.242465854,0.888130784,-0.171071574,-1.441650152,0.115895987,0.817895114,1.518476367
1763027702.382721,0.243143812,0.888008952,-0.170329273,-1.441649675,0.115895703,0.817895055,1.518476367
1763027702.388025,0.243704543,0.887900829,-0.169719934,-1.441647649,0.115895793,0.817894936,1.518476367
1763027702.393588,0.244276255,0.887778223,-0.169116348,-1.441644192,0.115895987,0.817894936,1.518476367
1763027702.437013,0.249340191,0.886734545,-0.163959712,-1.441643357,0.115895890,0.817894220,1.518476248
1763027702.442588,0.249923095,0.886628926,-0.163411915,-1.441643476,0.115895219,0.817894220,1.518476248
1763027702.447703,0.250634730,0.886502087,-0.162750870,-1.441643834,0.115895413,0.817894220,1.518476248
1763027702.453028,0.251233816,0.886390865,-0.162200078,-1.441643476,0.115895316,0.817894101,1.518476367
1763027702.458135,0.251835912,0.886278391,-0.161670551,-1.441643476,0.115895607,0.817894220,1.518476248
1763027702.463867,0.252555609,0.886139572,-0.161020100,-1.441643476,0.115895413,0.817894220,1.518476367
1763027702.469607,0.253161073,0.886035025,-0.160466492,-1.441643357,0.115895413,0.817894220,1.518476248
1763027702.474704,0.253774226,0.885940313,-0.159939840,-1.441643357,0.115895316,0.817894220,1.518476129
1763027702.480055,0.254498184,0.885820568,-0.159343392,-1.441642284,0.115895316,0.817894340,1.518476248
1763027702.486754,0.255233079,0.885697782,-0.158738434,-1.441641450,0.115895316,0.817894399,1.518476367
1763027702.491991,0.255978853,0.885572553,-0.158132806,-1.441641331,0.115895413,0.817894220,1.518476605
1763027702.497768,0.256700188,0.885456562,-0.157559067,-1.441641331,0.115895413,0.817894340,1.518476367
1763027702.503114,0.257321030,0.885365248,-0.157059744,-1.441641331,0.115895607,0.817894220,1.518476248
1763027702.508591,0.257965833,0.885275543,-0.156550705,-1.441641212,0.115895607,0.817894340,1.518476129
1763027702.513728,0.258718133,0.885165274,-0.155988649,-1.441641212,0.115895607,0.817894399,1.518476248
1763027702.518959,0.259345889,0.885072291,-0.155530006,-1.441641212,0.115895607,0.817894340,1.518476367
1763027702.524621,0.260001659,0.884985685,-0.155044764,-1.441641569,0.115895703,0.817894220,1.518476367
1763027702.529836,0.260776848,0.884883642,-0.154451668,-1.441641212,0.115895413,0.817894340,1.518476248
1763027702.535078,0.261418372,0.884798527,-0.153987646,-1.441641331,0.115895793,0.817894101,1.518476367
1763027702.577743,0.266915232,0.884108603,-0.150180548,-1.441641212,0.115895703,0.817894101,1.518476248
